;FLAVOR:Marlin
;TIME:5144
;Filament used: 2.68364m
;Layer height: 0.1
;MINX:-55.115
;MINY:-26.375
;MINZ:0.1
;MAXX:55.115
;MAXY:26.375
;MAXZ:3.6
;Generated with Cura_SteamEngine 4.8.0
M82 ;absolute extrusion mode
; Vertex Delta Start Gcode
M0 Is my nozzle clean?
M400
G28 ; Home extruder
M106 S128 ; Start fan
M104 T0 R130 ; Set cold nozzle
M109 T0 R130 ; Wait for cold nozzle
M117 Leveling bed...
G29 ; Level Bed
G1 X0 Y100 Z1 F2000
G92 Z0.9 ; Set Z position (SET Z OFFSET HERE -> 1 - OFFSET)
M107 ; Stop fan
G90 ; Absolute positioning
M82 ; Extruder in absolute mode
M104 T0 S205
G92 E0 ; Reset extruder position
M109 T0 S205
M117 Priming nozzle...
M83
G1 E20 F100 ; purge/prime nozzle
M82
G92 E0 ; Reset extruder position
G4 S2 ; Wait 2 seconds
M355 S0 ; Turn off LED's
G1 Z15 F2000
G1 X0 Y85  F2000
M117 Vertex Delta printing
G92 E0
G92 E0
G1 F1500 E-3
;LAYER_COUNT:30
;LAYER:0
M107
G1 F600 Z1.1
G0 F6650 X1.847 Y-26.375 Z1.1
;TYPE:SKIRT
G1 F600 Z0.1
G1 F1500 E0
G1 F4200 X2.565 Y-26.365 E0.01045
G1 X3.396 Y-26.33 E0.02255
G1 X6.128 Y-26.253 E0.06232
G1 X8.879 Y-26.253 E0.10235
G1 X11.572 Y-26.329 E0.14155
G1 X12.126 Y-26.356 E0.14963
G1 X12.83 Y-26.375 E0.15987
G1 X44.362 Y-26.374 E0.61871
G1 X45.07 Y-26.364 E0.62901
G1 X45.685 Y-26.329 E0.63797
G1 X46.585 Y-26.219 E0.65117
G1 X46.993 Y-26.129 E0.65725
G1 X47.494 Y-26.001 E0.66477
G1 X48.172 Y-25.771 E0.67519
G1 X48.34 Y-25.703 E0.67783
G1 X48.82 Y-25.495 E0.68544
G1 X49.404 Y-25.187 E0.69504
G1 X49.932 Y-24.857 E0.70411
G1 X50.313 Y-24.582 E0.71094
G1 X50.887 Y-24.112 E0.72174
G1 X51.408 Y-23.623 E0.73214
G1 X51.976 Y-22.957 E0.74487
G1 X52.245 Y-22.588 E0.75152
G1 X52.639 Y-21.975 E0.76212
G1 X52.979 Y-21.355 E0.77241
G1 X53.158 Y-20.948 E0.77888
G1 X53.346 Y-20.476 E0.78627
G1 X53.554 Y-19.8 E0.79656
G1 X53.59 Y-19.657 E0.79871
G1 X53.707 Y-19.142 E0.80639
G1 X53.81 Y-18.433 E0.81682
G1 X53.824 Y-18.265 E0.81927
G1 X53.863 Y-17.632 E0.8285
G1 X53.875 Y-16.975 E0.83806
G1 X53.875 Y-7.09 E0.9819
G1 X53.914 Y-4.32 E1.02221
G1 X54.031 Y-1.573 E1.06222
G1 X54.221 Y1.105 E1.10129
G1 X54.487 Y3.797 E1.14065
G1 X54.897 Y6.943 E1.18682
G1 X55.059 Y8.061 E1.20326
G1 X55.086 Y8.281 E1.20648
G1 X55.115 Y8.792 E1.21393
G1 X55.086 Y11.655 E1.25559
G1 X55.111 Y12.971 E1.27474
G1 X55.115 Y13.733 E1.28583
G1 X55.083 Y14.265 E1.29359
G1 X55.026 Y14.663 E1.29944
G1 X54.903 Y15.206 E1.30754
G1 X54.573 Y16.291 E1.32404
G1 X54.457 Y16.654 E1.32959
G1 X53.674 Y19.372 E1.37075
G1 X53.474 Y20.098 E1.3817
G1 X53.274 Y20.663 E1.39043
G1 X53.203 Y20.84 E1.3932
G1 X52.995 Y21.32 E1.40081
G1 X52.691 Y21.897 E1.4103
G1 X52.357 Y22.432 E1.41948
G1 X52.082 Y22.813 E1.42632
G1 X51.612 Y23.387 E1.43711
G1 X51.123 Y23.908 E1.44751
G1 X50.457 Y24.476 E1.46025
G1 X50.088 Y24.745 E1.46689
G1 X49.475 Y25.139 E1.4775
G1 X48.846 Y25.484 E1.48794
G1 X48.448 Y25.658 E1.49426
G1 X47.976 Y25.846 E1.50165
G1 X47.3 Y26.054 E1.51194
G1 X47.156 Y26.09 E1.5141
G1 X46.64 Y26.207 E1.5218
G1 X45.934 Y26.309 E1.53218
G1 X45.764 Y26.324 E1.53466
G1 X45.132 Y26.363 E1.54388
G1 X44.476 Y26.375 E1.55342
G1 X-44.361 Y26.374 E2.84612
G1 X-45.068 Y26.364 E2.85641
G1 X-45.668 Y26.331 E2.86515
G1 X-46.585 Y26.219 E2.87859
G1 X-46.993 Y26.129 E2.88467
G1 X-47.494 Y26.001 E2.8922
G1 X-48.172 Y25.771 E2.90262
G1 X-48.34 Y25.703 E2.90525
G1 X-48.82 Y25.495 E2.91287
G1 X-49.404 Y25.187 E2.92247
G1 X-49.929 Y24.86 E2.93147
G1 X-50.316 Y24.58 E2.93842
G1 X-50.889 Y24.11 E2.94921
G1 X-51.431 Y23.592 E2.96012
G1 X-51.971 Y22.963 E2.97218
G1 X-52.245 Y22.588 E2.97894
G1 X-52.639 Y21.975 E2.98954
G1 X-52.985 Y21.343 E3.00003
G1 X-53.161 Y20.939 E3.00644
G1 X-53.354 Y20.451 E3.01408
G1 X-53.492 Y20.037 E3.02043
G1 X-53.665 Y19.397 E3.03007
G1 X-54.421 Y16.756 E3.07005
G1 X-54.832 Y15.442 E3.09008
G1 X-54.923 Y15.128 E3.09484
G1 X-55.037 Y14.597 E3.10274
G1 X-55.087 Y14.209 E3.10843
G1 X-55.115 Y13.705 E3.11578
G1 X-55.086 Y10.843 E3.15743
G1 X-55.111 Y9.528 E3.17656
G1 X-55.115 Y8.766 E3.18765
G1 X-55.079 Y8.209 E3.19577
G1 X-54.985 Y7.574 E3.20511
G1 X-54.613 Y4.896 E3.24446
G1 X-54.311 Y2.156 E3.28457
G1 X-54.093 Y-.513 E3.32354
G1 X-53.947 Y-3.26 E3.36357
G1 X-53.874 Y-6.999 E3.41798
G1 X-53.874 Y-16.865 E3.56155
G1 X-53.864 Y-17.572 E3.57183
G1 X-53.829 Y-18.189 E3.58083
G1 X-53.719 Y-19.085 E3.59396
G1 X-53.628 Y-19.499 E3.60013
G1 X-53.502 Y-19.992 E3.60754
G1 X-53.269 Y-20.676 E3.61805
G1 X-53.004 Y-21.3 E3.62792
G1 X-52.699 Y-21.883 E3.63749
G1 X-52.353 Y-22.438 E3.64701
G1 X-52.081 Y-22.814 E3.65376
G1 X-51.613 Y-23.386 E3.66451
G1 X-51.092 Y-23.931 E3.67548
G1 X-50.463 Y-24.471 E3.68755
G1 X-50.088 Y-24.745 E3.69431
G1 X-49.475 Y-25.139 E3.70491
G1 X-48.853 Y-25.481 E3.71524
G1 X-48.438 Y-25.663 E3.72183
G1 X-47.965 Y-25.85 E3.72923
G1 X-47.308 Y-26.052 E3.73924
G1 X-47.156 Y-26.09 E3.74152
G1 X-46.64 Y-26.207 E3.74921
G1 X-45.934 Y-26.309 E3.75959
G1 X-45.764 Y-26.324 E3.76208
G1 X-45.132 Y-26.363 E3.77129
G1 X-44.475 Y-26.375 E3.78085
G1 X-43.153 Y-26.375 E3.80009
G1 X-42.435 Y-26.365 E3.81054
G1 X-41.604 Y-26.33 E3.82264
G1 X-38.872 Y-26.253 E3.86241
G1 X-36.121 Y-26.253 E3.90244
G1 X-33.427 Y-26.329 E3.94166
G1 X-32.874 Y-26.356 E3.94972
G1 X-32.17 Y-26.375 E3.95996
G1 X-28.153 Y-26.375 E4.01842
G1 X-27.435 Y-26.365 E4.02886
G1 X-26.604 Y-26.33 E4.04097
G1 X-23.872 Y-26.253 E4.08074
G1 X-21.121 Y-26.253 E4.12077
G1 X-18.428 Y-26.329 E4.15997
G1 X-17.874 Y-26.356 E4.16804
G1 X-17.17 Y-26.375 E4.17829
G1 X-13.153 Y-26.375 E4.23674
G1 X-12.435 Y-26.365 E4.24719
G1 X-11.604 Y-26.33 E4.25929
G1 X-8.872 Y-26.253 E4.29906
G1 X-6.121 Y-26.253 E4.33909
G1 X-3.428 Y-26.329 E4.3783
G1 X-2.874 Y-26.356 E4.38637
G1 X-2.17 Y-26.375 E4.39662
G1 X1.847 Y-26.375 E4.45507
G0 F6650 X1.842 Y-26.025
G1 F4200 X2.661 Y-26.012 E4.46699
G1 X3.371 Y-25.982 E4.47733
G1 X6.154 Y-25.903 E4.51784
G1 X8.853 Y-25.903 E4.55711
G1 X11.645 Y-25.982 E4.59776
G1 X12.136 Y-26.007 E4.60491
G1 X12.729 Y-26.024 E4.61354
G1 X44.357 Y-26.024 E5.07377
G1 X45.065 Y-26.014 E5.08408
G1 X45.651 Y-25.981 E5.09262
G1 X46.513 Y-25.876 E5.10525
G1 X46.907 Y-25.79 E5.11112
G1 X47.408 Y-25.662 E5.11865
G1 X48.048 Y-25.443 E5.12849
G1 X48.201 Y-25.381 E5.13089
G1 X48.681 Y-25.173 E5.1385
G1 X49.23 Y-24.884 E5.14753
G1 X49.744 Y-24.562 E5.15636
G1 X50.091 Y-24.311 E5.16259
G1 X50.665 Y-23.841 E5.17338
G1 X51.148 Y-23.388 E5.18302
G1 X51.705 Y-22.735 E5.19551
G1 X51.95 Y-22.399 E5.20156
G1 X52.344 Y-21.786 E5.21216
G1 X52.66 Y-21.211 E5.22171
G1 X52.833 Y-20.818 E5.22796
G1 X53.021 Y-20.346 E5.23535
G1 X53.216 Y-19.71 E5.24503
G1 X53.248 Y-19.58 E5.24698
G1 X53.365 Y-19.065 E5.25466
G1 X53.462 Y-18.395 E5.26452
G1 X53.475 Y-18.242 E5.26675
G1 X53.514 Y-17.619 E5.27583
G1 X53.525 Y-16.971 E5.28526
G1 X53.525 Y-7.085 E5.42912
G1 X53.564 Y-4.301 E5.46963
G1 X53.68 Y-1.567 E5.50945
G1 X53.871 Y1.126 E5.54874
G1 X54.141 Y3.845 E5.5885
G1 X54.55 Y6.988 E5.63462
G1 X54.712 Y8.104 E5.65103
G1 X54.765 Y8.788 E5.66101
G1 X54.736 Y11.655 E5.70273
G1 X54.761 Y12.972 E5.7219
G1 X54.765 Y13.734 E5.73299
G1 X54.714 Y14.386 E5.7425
G1 X54.68 Y14.61 E5.7458
G1 X54.568 Y15.104 E5.75317
G1 X54.24 Y16.185 E5.76961
G1 X54.105 Y16.61 E5.7761
G1 X53.359 Y19.197 E5.81528
G1 X53.137 Y20.001 E5.82741
G1 X52.947 Y20.539 E5.83571
G1 X52.881 Y20.701 E5.83826
G1 X52.673 Y21.181 E5.84587
G1 X52.388 Y21.724 E5.8548
G1 X52.061 Y22.245 E5.86375
G1 X51.811 Y22.591 E5.86996
G1 X51.341 Y23.165 E5.88075
G1 X50.888 Y23.648 E5.89039
G1 X50.235 Y24.205 E5.90288
G1 X49.899 Y24.45 E5.90893
G1 X49.286 Y24.844 E5.91953
G1 X48.704 Y25.164 E5.9292
G1 X48.318 Y25.333 E5.93533
G1 X47.846 Y25.521 E5.94272
G1 X47.21 Y25.716 E5.9524
G1 X47.078 Y25.749 E5.95438
G1 X46.562 Y25.866 E5.96208
G1 X45.897 Y25.961 E5.97186
G1 X45.742 Y25.975 E5.97412
G1 X45.212 Y26.009 E5.98185
G1 X44.472 Y26.025 E5.99262
G1 X-44.356 Y26.024 E7.28518
G1 X-45.063 Y26.014 E7.29547
G1 X-45.635 Y25.982 E7.30381
G1 X-46.513 Y25.876 E7.31668
G1 X-46.907 Y25.79 E7.32254
G1 X-47.408 Y25.662 E7.33007
G1 X-48.048 Y25.443 E7.33991
G1 X-48.201 Y25.381 E7.34231
G1 X-48.681 Y25.173 E7.34993
G1 X-49.23 Y24.884 E7.35895
G1 X-49.742 Y24.564 E7.36774
G1 X-50.095 Y24.309 E7.37408
G1 X-50.668 Y23.839 E7.38486
G1 X-51.182 Y23.346 E7.39522
G1 X-51.701 Y22.74 E7.40683
G1 X-51.95 Y22.399 E7.41298
G1 X-52.344 Y21.786 E7.42358
G1 X-52.666 Y21.201 E7.4333
G1 X-52.836 Y20.81 E7.4395
G1 X-53.029 Y20.322 E7.44714
G1 X-53.154 Y19.946 E7.4529
G1 X-53.327 Y19.306 E7.46255
G1 X-54.076 Y16.686 E7.5022
G1 X-54.496 Y15.344 E7.52267
G1 X-54.691 Y14.548 E7.53459
G1 X-54.765 Y13.709 E7.54685
G1 X-54.736 Y10.841 E7.58858
G1 X-54.761 Y9.527 E7.60771
G1 X-54.765 Y8.765 E7.61879
G1 X-54.731 Y8.249 E7.62632
G1 X-54.646 Y7.672 E7.63481
G1 X-54.262 Y4.909 E7.6754
G1 X-53.963 Y2.191 E7.71519
G1 X-53.743 Y-.502 E7.7545
G1 X-53.598 Y-3.235 E7.79433
G1 X-53.524 Y-6.999 E7.84911
G1 X-53.524 Y-16.86 E7.9926
G1 X-53.514 Y-17.567 E8.00289
G1 X-53.48 Y-18.156 E8.01147
G1 X-53.377 Y-19.012 E8.02402
G1 X-53.289 Y-19.412 E8.02998
G1 X-53.163 Y-19.905 E8.03738
G1 X-52.942 Y-20.552 E8.04733
G1 X-52.683 Y-21.161 E8.05696
G1 X-52.394 Y-21.711 E8.066
G1 X-52.057 Y-22.25 E8.07525
G1 X-51.81 Y-22.592 E8.08139
G1 X-51.342 Y-23.164 E8.09215
G1 X-50.846 Y-23.682 E8.10258
G1 X-50.24 Y-24.201 E8.11419
G1 X-49.899 Y-24.45 E8.12034
G1 X-49.286 Y-24.844 E8.13094
G1 X-48.71 Y-25.162 E8.14051
G1 X-48.309 Y-25.337 E8.14688
G1 X-47.836 Y-25.524 E8.15428
G1 X-47.217 Y-25.714 E8.1637
G1 X-47.078 Y-25.749 E8.16579
G1 X-46.562 Y-25.866 E8.17349
G1 X-45.897 Y-25.961 E8.18326
G1 X-45.742 Y-25.975 E8.18553
G1 X-45.212 Y-26.009 E8.19326
G1 X-44.471 Y-26.025 E8.20404
G1 X-43.158 Y-26.025 E8.22315
G1 X-42.339 Y-26.012 E8.23507
G1 X-41.629 Y-25.982 E8.24541
G1 X-38.846 Y-25.903 E8.28592
G1 X-36.147 Y-25.903 E8.32519
G1 X-33.356 Y-25.982 E8.36582
G1 X-32.864 Y-26.007 E8.37299
G1 X-32.271 Y-26.024 E8.38162
G1 X-28.158 Y-26.025 E8.44147
G1 X-27.339 Y-26.012 E8.45339
G1 X-26.629 Y-25.982 E8.46373
G1 X-23.846 Y-25.903 E8.50425
G1 X-21.147 Y-25.903 E8.54352
G1 X-18.355 Y-25.982 E8.58416
G1 X-17.864 Y-26.007 E8.59132
G1 X-17.271 Y-26.024 E8.59995
G1 X-13.158 Y-26.025 E8.6598
G1 X-12.339 Y-26.012 E8.67172
G1 X-11.629 Y-25.982 E8.68206
G1 X-8.846 Y-25.903 E8.72257
G1 X-6.147 Y-25.903 E8.76184
G1 X-3.355 Y-25.982 E8.80249
G1 X-2.864 Y-26.007 E8.80964
G1 X-2.271 Y-26.024 E8.81827
G1 X1.842 Y-26.025 E8.87812
G0 F6650 X1.837 Y-25.675
G1 F4200 X2.555 Y-25.665 E8.88857
G1 X3.352 Y-25.632 E8.90018
G1 X6.144 Y-25.553 E8.94082
G1 X8.863 Y-25.553 E8.98039
G1 X11.628 Y-25.631 E9.02064
G1 X12.146 Y-25.657 E9.02819
G1 X12.83 Y-25.675 E9.03814
G1 X44.352 Y-25.674 E9.49683
G1 X45.06 Y-25.664 E9.50713
G1 X45.618 Y-25.633 E9.51526
G1 X46.441 Y-25.534 E9.52733
G1 X46.82 Y-25.451 E9.53297
G1 X47.321 Y-25.323 E9.5405
G1 X47.924 Y-25.116 E9.54977
G1 X48.061 Y-25.06 E9.55193
G1 X48.541 Y-24.852 E9.55954
G1 X49.056 Y-24.58 E9.56801
G1 X49.557 Y-24.266 E9.57662
G1 X49.869 Y-24.041 E9.58222
G1 X50.443 Y-23.571 E9.59301
G1 X50.889 Y-23.154 E9.6019
G1 X51.435 Y-22.512 E9.61416
G1 X51.656 Y-22.21 E9.6196
G1 X52.05 Y-21.597 E9.63021
G1 X52.341 Y-21.068 E9.63899
G1 X52.508 Y-20.689 E9.64502
G1 X52.696 Y-20.217 E9.65241
G1 X52.878 Y-19.619 E9.66151
G1 X52.907 Y-19.502 E9.66326
G1 X53.024 Y-18.987 E9.67095
G1 X53.114 Y-18.358 E9.68019
G1 X53.125 Y-18.22 E9.68221
G1 X53.164 Y-17.606 E9.69116
G1 X53.175 Y-16.967 E9.70046
G1 X53.175 Y-7.08 E9.84433
G1 X53.215 Y-4.281 E9.88506
G1 X53.33 Y-1.565 E9.92462
G1 X53.523 Y1.153 E9.96427
G1 X53.797 Y3.922 E10.00476
G1 X54.196 Y6.985 E10.04971
G1 X54.364 Y8.146 E10.06678
G1 X54.415 Y8.785 E10.0761
G1 X54.386 Y11.655 E10.11787
G1 X54.411 Y12.974 E10.13707
G1 X54.415 Y13.736 E10.14815
G1 X54.368 Y14.333 E10.15687
G1 X54.233 Y15.003 E10.16681
G1 X53.906 Y16.079 E10.18318
G1 X53.777 Y16.484 E10.18936
G1 X53.008 Y19.155 E10.22981
G1 X52.801 Y19.904 E10.24111
G1 X52.619 Y20.416 E10.24902
G1 X52.56 Y20.561 E10.2513
G1 X52.352 Y21.041 E10.25891
G1 X52.084 Y21.55 E10.26728
G1 X51.766 Y22.058 E10.276
G1 X51.541 Y22.369 E10.28159
G1 X51.071 Y22.943 E10.29238
G1 X50.654 Y23.389 E10.30127
G1 X50.012 Y23.935 E10.31353
G1 X49.71 Y24.156 E10.31898
G1 X49.097 Y24.55 E10.32958
G1 X48.562 Y24.844 E10.33846
G1 X48.189 Y25.008 E10.34439
G1 X47.717 Y25.196 E10.35179
G1 X47.119 Y25.378 E10.36088
G1 X47.001 Y25.407 E10.36265
G1 X46.485 Y25.524 E10.37035
G1 X45.859 Y25.613 E10.37955
G1 X45.719 Y25.625 E10.38159
G1 X45.106 Y25.664 E10.39053
G1 X44.469 Y25.675 E10.3998
G1 X-44.351 Y25.674 E11.69225
G1 X-45.058 Y25.664 E11.70254
G1 X-45.602 Y25.634 E11.71047
G1 X-46.441 Y25.534 E11.72276
G1 X-46.82 Y25.451 E11.72841
G1 X-47.321 Y25.323 E11.73593
G1 X-47.924 Y25.116 E11.74521
G1 X-48.061 Y25.06 E11.74736
G1 X-48.541 Y24.852 E11.75498
G1 X-49.056 Y24.58 E11.76345
G1 X-49.555 Y24.268 E11.77201
G1 X-49.873 Y24.039 E11.77772
G1 X-50.446 Y23.569 E11.7885
G1 X-50.933 Y23.1 E11.79834
G1 X-51.432 Y22.517 E11.80951
G1 X-51.656 Y22.21 E11.81503
G1 X-52.05 Y21.597 E11.82564
G1 X-52.346 Y21.059 E11.83457
G1 X-52.51 Y20.682 E11.84056
G1 X-52.703 Y20.194 E11.84819
G1 X-52.816 Y19.855 E11.85339
G1 X-52.977 Y19.259 E11.86238
G1 X-53.746 Y16.571 E11.90306
G1 X-54.16 Y15.247 E11.92324
G1 X-54.344 Y14.498 E11.93447
G1 X-54.415 Y13.712 E11.94595
G1 X-54.386 Y10.837 E11.98779
G1 X-54.411 Y9.525 E12.00688
G1 X-54.415 Y8.763 E12.01797
G1 X-54.368 Y8.172 E12.0266
G1 X-54.293 Y7.68 E12.03384
G1 X-53.916 Y4.961 E12.07378
G1 X-53.614 Y2.22 E12.11391
G1 X-53.395 Y-.454 E12.15295
G1 X-53.247 Y-3.239 E12.19353
G1 X-53.174 Y-6.999 E12.24826
G1 X-53.174 Y-16.855 E12.39167
G1 X-53.164 Y-17.562 E12.40196
G1 X-53.132 Y-18.123 E12.41014
G1 X-53.034 Y-18.94 E12.42211
G1 X-52.95 Y-19.325 E12.42785
G1 X-52.824 Y-19.818 E12.43525
G1 X-52.614 Y-20.428 E12.44464
G1 X-52.361 Y-21.022 E12.45403
G1 X-52.09 Y-21.539 E12.46253
G1 X-51.762 Y-22.063 E12.47152
G1 X-51.539 Y-22.371 E12.47706
G1 X-51.071 Y-22.943 E12.48781
G1 X-50.6 Y-23.433 E12.4977
G1 X-50.017 Y-23.932 E12.50887
G1 X-49.71 Y-24.156 E12.5144
G1 X-49.097 Y-24.55 E12.525
G1 X-48.567 Y-24.842 E12.53381
G1 X-48.18 Y-25.012 E12.53996
G1 X-47.707 Y-25.199 E12.54736
G1 X-47.126 Y-25.376 E12.5562
G1 X-47.001 Y-25.407 E12.55807
G1 X-46.485 Y-25.524 E12.56577
G1 X-45.859 Y-25.613 E12.57497
G1 X-45.719 Y-25.625 E12.57701
G1 X-45.106 Y-25.664 E12.58595
G1 X-44.467 Y-25.675 E12.59525
G1 X-43.163 Y-25.675 E12.61423
G1 X-42.445 Y-25.665 E12.62468
G1 X-41.648 Y-25.632 E12.63628
G1 X-38.856 Y-25.553 E12.67693
G1 X-36.137 Y-25.553 E12.71649
G1 X-33.373 Y-25.631 E12.75673
G1 X-32.854 Y-25.657 E12.76429
G1 X-32.17 Y-25.675 E12.77425
G1 X-28.163 Y-25.675 E12.83255
G1 X-27.445 Y-25.665 E12.843
G1 X-26.648 Y-25.632 E12.85461
G1 X-23.856 Y-25.553 E12.89525
G1 X-21.137 Y-25.553 E12.93482
G1 X-18.372 Y-25.631 E12.97507
G1 X-17.854 Y-25.657 E12.98262
G1 X-17.17 Y-25.675 E12.99257
G1 X-13.163 Y-25.675 E13.05088
G1 X-12.445 Y-25.665 E13.06133
G1 X-11.648 Y-25.632 E13.07294
G1 X-8.856 Y-25.553 E13.11358
G1 X-6.137 Y-25.553 E13.15314
G1 X-3.372 Y-25.631 E13.19339
G1 X-2.854 Y-25.657 E13.20094
G1 X-2.17 Y-25.675 E13.2109
G1 X1.837 Y-25.675 E13.2692
G1 F1500 E10.2692
;MESH:Filament_Swatch.stl
G0 F6650 X-3.153 Y-23.153
G0 X-3.153 Y-20.204
G0 X-2.136 Y-19.187
G0 X-13.025 Y-19.026
;TYPE:WALL-INNER
G1 F1500 E13.2692
G1 F2100 X-1.975 Y-19.026 E13.43
G1 X-1.975 Y-21.975 E13.47291
G1 X1.975 Y-21.975 E13.53039
G1 X1.975 Y-16.866 E13.60473
G1 X13.025 Y-16.866 E13.76552
G1 X13.025 Y-21.8 E13.83732
G1 X13.025 Y-21.975 E13.83986
G1 X13.2 Y-21.975 E13.84151
G1 X44.997 Y-21.974 E14.3042
G1 X45.7 Y-21.918 E14.31446
G1 X46.38 Y-21.755 E14.32464
G1 X47.028 Y-21.487 E14.33484
G1 X47.641 Y-21.109 E14.34532
G1 X48.163 Y-20.664 E14.3553
G1 X48.627 Y-20.118 E14.36573
G1 X48.984 Y-19.535 E14.37568
G1 X49.255 Y-18.88 E14.38599
G1 X49.418 Y-18.2 E14.39616
G1 X49.475 Y-17.485 E14.4066
G1 X49.475 Y4.558 E14.72736
G1 X49.104 Y4.712 E14.7332
G1 X48.737 Y4.998 E14.73997
G1 X48.455 Y5.368 E14.74674
G1 X48.281 Y5.795 E14.75345
G1 X48.22 Y6.257 E14.76023
G1 X48.285 Y6.718 E14.76701
G1 X48.462 Y7.146 E14.77375
G1 X48.748 Y7.513 E14.78052
G1 X49.118 Y7.795 E14.78729
G1 X49.545 Y7.968 E14.79399
