;FLAVOR:Marlin
;TIME:826
;Filament used: 0.270177m
;Layer height: 0.1
;MINX:-16.522
;MINY:-11.358
;MINZ:0.1
;MAXX:16.523
;MAXY:11.369
;MAXZ:5.5
;Generated with Cura_SteamEngine 4.8.0
M82 ;absolute extrusion mode
; Vertex Delta Start Gcode
M0 Is my nozzle clean?
M400
G28 ; Home extruder
M106 S128 ; Start fan
M104 T0 R130 ; Set cold nozzle
M109 T0 R130 ; Wait for cold nozzle
M117 Leveling bed...
G29 ; Level Bed
G1 X0 Y100 Z1 F2000
G92 Z0.9 ; Set Z position (SET Z OFFSET HERE -> 1 - OFFSET)
M107 ; Stop fan
G90 ; Absolute positioning
M82 ; Extruder in absolute mode
M104 T0 S205
G92 E0 ; Reset extruder position
M109 T0 S205
M117 Priming nozzle...
M83
G1 E20 F100 ; purge/prime nozzle
M82
G92 E0 ; Reset extruder position
G4 S2 ; Wait 2 seconds
M355 S0 ; Turn off LED's
G1 Z15 F2000
G1 X0 Y85  F2000
M117 Vertex Delta printing
G92 E0
G92 E0
G1 F1500 E-3
;LAYER_COUNT:55
;LAYER:0
M107
G1 F600 Z1.1
G0 F6650 X4.057 Y-4.878 Z1.1
;TYPE:SKIRT
G1 F600 Z0.1
G1 F1500 E0
G1 F4200 X6.126 Y-3.124 E0.03947
G1 X8.221 Y-1.447 E0.07852
G1 X10.444 Y0.231 E0.11905
G1 X12.64 Y1.793 E0.15826
G1 X13.949 Y2.679 E0.18126
G1 X14.491 Y3.1 E0.19125
G1 X14.898 Y3.478 E0.19933
G1 X15.243 Y3.877 E0.20701
G1 X15.46 Y4.166 E0.21226
G1 X15.821 Y4.748 E0.22223
G1 X16.021 Y5.154 E0.22882
G1 X16.228 Y5.694 E0.23723
G1 X16.324 Y6.015 E0.24211
G1 X16.458 Y6.659 E0.25168
G1 X16.508 Y7.093 E0.25804
G1 X16.523 Y7.65 E0.26614
G1 X16.459 Y8.202 E0.27423
G1 X16.316 Y8.74 E0.28233
G1 X16.098 Y9.252 E0.29043
G1 X15.808 Y9.727 E0.29853
G1 X15.454 Y10.156 E0.30662
G1 X15.041 Y10.53 E0.31473
G1 X14.58 Y10.84 E0.32281
G1 X14.079 Y11.082 E0.33091
G1 X13.548 Y11.249 E0.33901
G1 X12.999 Y11.338 E0.3471
G1 X12.719 Y11.353 E0.35118
G1 X11.791 Y11.369 E0.36469
G1 X-3.685 Y11.368 E0.58988
G1 X-5.389 Y11.327 E0.61468
G1 X-6.334 Y11.287 E0.62845
G1 X-7.081 Y11.246 E0.63933
G1 X-7.657 Y11.188 E0.64776
G1 X-8.172 Y11.118 E0.65532
G1 X-8.684 Y11.015 E0.66292
G1 X-8.85 Y10.973 E0.66541
G1 X-9.462 Y10.801 E0.67466
G1 X-9.843 Y10.683 E0.68047
G1 X-10.369 Y10.507 E0.68854
G1 X-10.878 Y10.295 E0.69656
G1 X-11.417 Y10.022 E0.70535
G1 X-11.852 Y9.787 E0.71255
G1 X-12.316 Y9.492 E0.72055
G1 X-12.803 Y9.13 E0.72938
G1 X-13.319 Y8.717 E0.73899
G1 X-13.918 Y8.117 E0.75133
G1 X-14.309 Y7.687 E0.75979
G1 X-14.645 Y7.259 E0.76771
G1 X-14.985 Y6.754 E0.77657
G1 X-15.237 Y6.357 E0.78341
G1 X-15.496 Y5.876 E0.79136
G1 X-15.755 Y5.3 E0.80055
G1 X-15.931 Y4.88 E0.80717
G1 X-16.111 Y4.344 E0.8154
G1 X-16.259 Y3.761 E0.82415
G1 X-16.363 Y3.308 E0.83092
G1 X-16.448 Y2.763 E0.83894
G1 X-16.497 Y2.152 E0.84786
G1 X-16.522 Y1.674 E0.85483
G1 X-16.513 Y1.14 E0.8626
G1 X-16.47 Y0.64 E0.8699
G1 X-16.404 Y0.06 E0.8784
G1 X-16.303 Y-.478 E0.88636
G1 X-16.144 Y-1.071 E0.89529
G1 X-15.998 Y-1.564 E0.90278
G1 X-15.792 Y-2.16 E0.91195
G1 X-14.912 Y-4.744 E0.95167
G1 X-13.775 Y-8.495 E1.00871
G1 X-13.575 Y-9.014 E1.0168
G1 X-13.304 Y-9.5 E1.0249
G1 X-12.966 Y-9.942 E1.033
G1 X-12.567 Y-10.33 E1.04109
G1 X-12.052 Y-10.699 E1.05031
G1 X-11.866 Y-10.81 E1.05346
G1 X-11.369 Y-11.06 E1.06156
G1 X-10.841 Y-11.236 E1.06966
G1 X-10.231 Y-11.341 E1.07867
G1 X-9.75 Y-11.358 E1.08567
G1 X-9.223 Y-11.337 E1.09334
G1 X-8.68 Y-11.297 E1.10127
G1 X-8.452 Y-11.273 E1.1046
G1 X-7.411 Y-11.134 E1.11988
G1 X-5.196 Y-10.819 E1.15244
G1 X-3.766 Y-10.633 E1.17342
G1 X-3.19 Y-10.513 E1.18199
G1 X-2.803 Y-10.401 E1.18785
G1 X-2.238 Y-10.189 E1.19663
G1 X-1.879 Y-10.021 E1.2024
G1 X-1.376 Y-9.738 E1.21079
G1 X-1.006 Y-9.492 E1.21726
G1 X-.537 Y-9.125 E1.22593
G1 X-0.081 Y-8.706 E1.23494
G1 X0.056 Y-8.572 E1.23773
G1 X2.022 Y-6.704 E1.27719
G1 X4.057 Y-4.878 E1.31697
G0 F6650 X3.827 Y-4.614
G1 F4200 X5.892 Y-2.864 E1.35636
G1 X8.041 Y-1.144 E1.39641
G1 X10.201 Y0.487 E1.4358
G1 X12.436 Y2.077 E1.47571
G1 X13.753 Y2.968 E1.49885
G1 X14.271 Y3.371 E1.5084
G1 X14.65 Y3.725 E1.51595
G1 X15.18 Y4.376 E1.52816
G1 X15.508 Y4.905 E1.53722
G1 X15.704 Y5.303 E1.54367
G1 X15.892 Y5.794 E1.55132
G1 X15.988 Y6.115 E1.5562
G1 X16.11 Y6.701 E1.56491
G1 X16.16 Y7.128 E1.57117
G1 X16.172 Y7.659 E1.57889
G1 X16.106 Y8.185 E1.58661
G1 X15.96 Y8.696 E1.59434
G1 X15.74 Y9.178 E1.60205
G1 X15.45 Y9.623 E1.60978
G1 X15.097 Y10.019 E1.6175
G1 X14.688 Y10.357 E1.62522
G1 X14.233 Y10.63 E1.63294
G1 X13.742 Y10.831 E1.64066
G1 X13.226 Y10.957 E1.64839
G1 X12.713 Y11.003 E1.65589
G1 X11.791 Y11.019 E1.6693
G1 X-3.677 Y11.018 E1.89438
G1 X-5.375 Y10.977 E1.9191
G1 X-6.315 Y10.938 E1.93279
G1 X-7.062 Y10.897 E1.94367
G1 X-7.618 Y10.84 E1.95181
G1 X-8.123 Y10.771 E1.95922
G1 X-8.757 Y10.636 E1.96866
G1 X-9.359 Y10.467 E1.97776
G1 X-9.732 Y10.351 E1.98344
G1 X-10.258 Y10.175 E1.99151
G1 X-10.721 Y9.982 E1.99881
G1 X-11.25 Y9.714 E2.00744
G1 X-11.685 Y9.479 E2.01463
G1 X-12.108 Y9.211 E2.02192
G1 X-12.587 Y8.854 E2.03061
G1 X-13.088 Y8.454 E2.03994
G1 X-13.665 Y7.875 E2.05184
G1 X-14.049 Y7.452 E2.06015
G1 X-14.633 Y6.652 E2.07456
G1 X-14.941 Y6.169 E2.0829
G1 X-15.177 Y5.732 E2.09012
G1 X-15.432 Y5.164 E2.09918
G1 X-15.608 Y4.744 E2.10581
G1 X-15.772 Y4.257 E2.11329
G1 X-15.918 Y3.683 E2.12191
G1 X-16.022 Y3.23 E2.12867
G1 X-16.099 Y2.734 E2.13597
G1 X-16.147 Y2.134 E2.14473
G1 X-16.164 Y1.17 E2.15876
G1 X-16.121 Y0.67 E2.16606
G1 X-16.056 Y0.101 E2.1744
G1 X-15.838 Y-.868 E2.18885
G1 X-15.809 Y-.972 E2.19042
G1 X-15.663 Y-1.465 E2.1979
G1 X-15.467 Y-2.029 E2.20659
G1 X-14.573 Y-4.653 E2.24693
G1 X-13.44 Y-8.393 E2.30379
G1 X-13.248 Y-8.888 E2.31152
G1 X-12.984 Y-9.348 E2.31924
G1 X-12.654 Y-9.764 E2.32696
G1 X-12.266 Y-10.126 E2.33469
G1 X-11.686 Y-10.509 E2.3448
G1 X-11.212 Y-10.746 E2.35251
G1 X-10.707 Y-10.909 E2.36023
G1 X-10.199 Y-10.993 E2.36773
G1 X-9.76 Y-11.008 E2.37412
G1 X-9.249 Y-10.987 E2.38156
G1 X-8.706 Y-10.947 E2.38948
G1 X-8.498 Y-10.926 E2.39252
G1 X-7.46 Y-10.787 E2.40776
G1 X-5.245 Y-10.473 E2.44032
G1 X-3.811 Y-10.286 E2.46136
G1 X-3.287 Y-10.177 E2.46915
G1 X-2.9 Y-10.065 E2.47501
G1 X-2.386 Y-9.872 E2.483
G1 X-2.027 Y-9.704 E2.48877
G1 X-1.569 Y-9.446 E2.49642
G1 X-1.199 Y-9.2 E2.50288
G1 X-.773 Y-8.867 E2.51075
G1 X-.326 Y-8.456 E2.51959
G1 X-.188 Y-8.321 E2.52239
G1 X1.776 Y-6.455 E2.56182
G1 X3.827 Y-4.614 E2.60192
G0 F6650 X3.596 Y-4.352
G1 F4200 X5.674 Y-2.59 E2.64156
G1 X7.821 Y-.872 E2.68158
G1 X9.997 Y0.771 E2.72125
G1 X12.241 Y2.368 E2.76133
G1 X13.557 Y3.258 E2.78445
G1 X14.05 Y3.643 E2.79355
G1 X14.401 Y3.971 E2.80054
G1 X14.9 Y4.587 E2.81208
G1 X15.196 Y5.063 E2.82023
G1 X15.557 Y5.894 E2.83342
G1 X15.653 Y6.215 E2.83829
G1 X15.763 Y6.743 E2.84614
G1 X15.811 Y7.163 E2.85229
G1 X15.821 Y7.667 E2.85963
G1 X15.752 Y8.165 E2.86694
G1 X15.604 Y8.647 E2.87428
G1 X15.383 Y9.099 E2.8816
G1 X15.092 Y9.51 E2.88893
G1 X14.74 Y9.871 E2.89627
G1 X14.336 Y10.171 E2.90359
G1 X13.889 Y10.403 E2.91092
G1 X13.411 Y10.562 E2.91825
G1 X12.707 Y10.654 E2.92858
G1 X11.846 Y10.669 E2.94111
G1 X-3.669 Y10.668 E3.16687
G1 X-5.36 Y10.627 E3.19149
G1 X-6.296 Y10.588 E3.20512
G1 X-7.043 Y10.547 E3.216
G1 X-7.58 Y10.492 E3.22386
G1 X-8.353 Y10.373 E3.23524
G1 X-8.663 Y10.299 E3.23988
G1 X-9.173 Y10.157 E3.24758
G1 X-9.62 Y10.019 E3.25439
G1 X-10.146 Y9.843 E3.26246
G1 X-11 Y9.45 E3.27614
G1 X-11.519 Y9.171 E3.28471
G1 X-12.301 Y8.632 E3.29853
G1 X-12.719 Y8.306 E3.30625
G1 X-13.413 Y7.632 E3.32032
G1 X-13.79 Y7.218 E3.32847
G1 X-14.343 Y6.456 E3.34217
G1 X-14.646 Y5.982 E3.35036
G1 X-14.858 Y5.587 E3.35688
G1 X-15.109 Y5.029 E3.36578
G1 X-15.433 Y4.17 E3.37914
G1 X-15.558 Y3.682 E3.38647
G1 X-15.68 Y3.151 E3.3944
G1 X-15.791 Y2.214 E3.40813
G1 X-15.823 Y1.638 E3.41653
G1 X-15.815 Y1.2 E3.4229
G1 X-15.763 Y0.605 E3.43159
G1 X-15.626 Y-.3 E3.44491
G1 X-15.473 Y-.873 E3.45354
G1 X-15.327 Y-1.366 E3.46102
G1 X-15.12 Y-1.961 E3.47019
G1 X-14.248 Y-4.519 E3.50952
G1 X-13.105 Y-8.292 E3.56688
G1 X-12.921 Y-8.761 E3.57421
G1 X-12.665 Y-9.194 E3.58153
G1 X-12.344 Y-9.582 E3.58886
G1 X-11.966 Y-9.915 E3.59619
G1 X-11.507 Y-10.208 E3.60411
G1 X-11.056 Y-10.431 E3.61143
G1 X-10.574 Y-10.58 E3.61878
G1 X-9.77 Y-10.658 E3.63053
G1 X-9.275 Y-10.638 E3.63774
G1 X-8.732 Y-10.598 E3.64566
G1 X-8.544 Y-10.579 E3.64841
G1 X-7.509 Y-10.441 E3.66361
G1 X-5.294 Y-10.126 E3.69616
G1 X-3.857 Y-9.939 E3.71725
G1 X-2.997 Y-9.729 E3.73013
G1 X-2.175 Y-9.387 E3.74308
G1 X-1.393 Y-8.909 E3.75642
G1 X-.649 Y-8.28 E3.7706
G1 X-.466 Y-8.103 E3.7743
G1 X1.55 Y-6.187 E3.81477
G1 X3.596 Y-4.352 E3.85476
G1 F1500 E0.85476
;MESH:smaller_filament_clip.stl
G0 F6650 X-.75 Y-4.358
G0 X-1.435 Y-3.713
G0 X-2.438 Y-4.335
;TYPE:WALL-INNER
G1 F1500 E3.85476
G1 F2100 X-2.24 Y-4.136 E3.85885
G1 X-2.386 Y-4.104 E3.85918
G1 X-2.459 Y-4.088 E3.86026
G1 X-2.711 Y-4.032 E3.86402
G1 X-2.907 Y-4.236 E3.86814
G1 X-3.337 Y-4.617 E3.8765
G1 X-3.796 Y-4.959 E3.88483
G1 X-4.279 Y-5.265 E3.89315
G1 X-4.787 Y-5.532 E3.9015
G1 X-5.315 Y-5.756 E3.90984
G1 X-5.858 Y-5.937 E3.91817
G1 X-6.252 Y-6.034 E3.92408
G1 X-6.431 Y-6.077 E3.92675
G1 X-6.98 Y-6.173 E3.93486
G1 X-7.054 Y-6.186 E3.93596
G1 X-7.655 Y-6.281 E3.94481
G1 X-8.216 Y-6.358 E3.95305
G1 X-8.688 Y-6.43 E3.96
G1 X-8.855 Y-6.601 E3.96348
G1 X-9.042 Y-6.793 E3.96738
G1 X-9.172 Y-6.927 E3.97009
G1 X-8.921 Y-6.912 E3.97149
G1 X-8.655 Y-6.872 E3.97445
G1 X-7.916 Y-6.76 E3.98532
G1 X-6.968 Y-6.53 E3.99952
G1 X-6.903 Y-6.515 E4.00049
G1 X-6.36 Y-6.393 E4.00828
G1 X-6.347 Y-6.39 E4.00847
G1 X-6.163 Y-6.372 E4.01107
G1 X-5.687 Y-6.324 E4.01803
G1 X-5.056 Y-6.336 E4.02722
G1 X-4.684 Y-6.338 E4.03263
G1 X-4.347 Y-6.287 E4.03759
G1 X-4.023 Y-6.186 E4.04253
G1 X-3.722 Y-6.039 E4.0474
G1 X-3.444 Y-5.844 E4.05234
G1 X-3.195 Y-5.608 E4.05734
G1 X-2.983 Y-5.335 E4.06237
G1 X-2.473 Y-4.4 E4.07786
G1 X-2.438 Y-4.335 E4.0788
G1 F1500 E1.0788
G0 F6650 X-1.435 Y-3.713
G0 X-.456 Y-2.686
G0 X-0.045 Y-1.465
G0 X2.442 Y1.083
G0 X2.823 Y1.737
G1 F1500 E4.0788
G1 F2100 X2.814 Y1.295 E4.08523
G1 X2.617 Y0.937 E4.09118
G1 X2.456 Y0.801 E4.09424
G1 X1.865 Y0.381 E4.10479
G1 X1.277 Y-0.075 E4.11562
G1 X0.731 Y-.535 E4.12601
G1 X0.224 Y-.996 E4.13598
G1 X-.225 Y-1.428 E4.14505
G1 X-.169 Y-1.563 E4.14717
G1 X-.148 Y-1.613 E4.14796
G1 X-.119 Y-1.972 E4.1532
G1 X0.045 Y-1.81 E4.15418
G1 X0.084 Y-1.772 E4.1549
G1 X0.624 Y-1.238 E4.16595
G1 X1.503 Y-.469 E4.18294
G1 X2.439 Y0.241 E4.20004
G1 X2.846 Y0.544 E4.20742
G1 X3.121 Y0.891 E4.21387
G1 X3.266 Y1.295 E4.22011
G1 X3.277 Y1.728 E4.22641
G1 X3.143 Y2.163 E4.23304
G1 X2.976 Y2.462 E4.23802
G1 X2.638 Y2.844 E4.24544
G1 X2.221 Y3.079 E4.25241
G1 X1.65 Y3.183 E4.26085
G1 X1.309 Y3.166 E4.26582
G1 X0.901 Y3.058 E4.27196
G1 X0.418 Y2.73 E4.28046
G1 X-.208 Y2.257 E4.29188
G1 X-.827 Y1.752 E4.3035
G1 X-1.408 Y1.24 E4.31477
G1 X-1.962 Y0.719 E4.32584
G1 X-2.429 Y0.196 E4.33604
G1 X-2.679 Y-0.083 E4.34149
G1 X-2.761 Y-.174 E4.34327
G1 X-2.638 Y-.121 E4.34353
G1 X-2.265 Y-0.087 E4.34684
G1 X-1.991 Y-0.061 E4.35085
G1 X-1.512 Y-.172 E4.358
G1 X-1.225 Y0.11 E4.36386
G1 X-.307 Y0.949 E4.38195
G1 X0.655 Y1.724 E4.39993
G1 X1.461 Y2.303 E4.41437
G1 X1.817 Y2.441 E4.41993
G1 X2.257 Y2.387 E4.42638
G1 X2.621 Y2.133 E4.43284
G1 X2.823 Y1.737 E4.43931
G1 F1500 E1.43931
G0 F6650 X1.949 Y0.262
G0 X0.321 Y-1.104
G0 X2.741 Y0.648
G0 X3.121 Y1.321
G0 X2.857 Y2.376
G0 X1.996 Y3.372
G0 X-.342 Y2.437
G0 X-4.179 Y-1.452
G0 X-4.733 Y-1.932
G0 X-5.362 Y-2.316
G0 X-6.075 Y-2.554
G0 X-7.305 Y-2.56
G0 X-8.154 Y-2.324
G0 X-8.936 Y-1.92
G0 X-9.628 Y-1.359
G0 X-10.184 Y-.675
G0 X-10.589 Y0.11
G0 X-10.827 Y0.964
G0 X-10.884 Y1.845
G0 X-10.761 Y2.722
G0 X-10.46 Y3.557
G0 X-9.996 Y4.309
G0 X-9.392 Y4.947
G0 X-8.661 Y5.457
G0 X-7.846 Y5.802
G0 X-6.991 Y5.971
G0 X-5.895 Y4.968
G0 X-4.648 Y5.838
G0 X-3.322 Y5.725
G0 X-1.822 Y5.725
G0 X-.322 Y5.725
G0 X1.897 Y6.252
G1 F1500 E4.43931
G1 F2100 X1.897 Y5.951 E4.44369
G1 X1.897 Y5.95 E4.4437
G1 X1.897 Y5.792 E4.446
G1 X1.897 Y5.791 E4.44601
G1 X1.897 Y5.459 E4.45084
G1 X2.171 Y5.647 E4.45354
G1 X2.556 Y5.913 E4.46035
G1 X2.818 Y6.109 E4.46511
G1 X3.397 Y5.818 E4.47454
G1 X3.397 Y5.459 E4.47977
G1 X3.564 Y5.574 E4.4806
G1 X4.056 Y5.913 E4.48929
G1 X4.318 Y6.109 E4.49405
G1 X4.897 Y5.818 E4.50348
G1 X4.897 Y5.459 E4.5087
G1 X5.064 Y5.574 E4.50953
G1 X5.747 Y6.045 E4.52161
G1 X6.307 Y5.929 E4.52993
G1 X6.691 Y5.509 E4.53821
G1 X6.735 Y5.025 E4.54528
G1 X6.692 Y4.847 E4.54795
G1 X6.618 Y4.535 E4.55261
G1 X6.92 Y4.642 E4.55523
G1 X11.139 Y6.134 E4.62034
G1 X11.592 Y6.386 E4.62789
G1 X11.818 Y6.647 E4.63291
G1 X11.928 Y6.774 E4.63536
G1 X12.022 Y6.969 E4.63851
G1 X11.928 Y6.969
G1 X11.759 Y6.969 E4.64047
G1 X-3.761 Y6.969 E4.86631
G1 X-4.342 Y6.965 E4.87476
G1 X-6.803 Y6.864 E4.9106
G1 X-7.546 Y6.772 E4.9215
G1 X-8.07 Y6.634 E4.92938
G1 X-8.947 Y6.352 E4.94279
G1 X-9.729 Y5.945 E4.95562
G1 X-10.428 Y5.413 E4.9684
G1 X-11.031 Y4.765 E4.98128
G1 X-11.514 Y4.029 E4.99409
G1 X-11.868 Y3.214 E5.00702
G1 X-12.075 Y2.361 E5.01979
G1 X-12.136 Y1.476 E5.0327
G1 X-12.048 Y0.604 E5.04545
G1 X-11.809 Y-.252 E5.05838
G1 X-11.433 Y-1.046 E5.07117
G1 X-10.925 Y-1.771 E5.08405
G1 X-10.308 Y-2.392 E5.09679
G1 X-9.585 Y-2.906 E5.1097
G1 X-8.786 Y-3.29 E5.1226
G1 X-7.941 Y-3.531 E5.13538
G1 X-7.063 Y-3.626 E5.14823
G1 X-6.183 Y-3.571 E5.16106
G1 X-5.324 Y-3.367 E5.17391
G1 X-4.512 Y-3.021 E5.18675
G1 X-4.056 Y-2.726 E5.19466
G1 X-4.108 Y-2.606 E5.19656
G1 X-4.151 Y-2.136 E5.20343
G1 X-4.166 Y-1.959 E5.20601
G1 X-4.1 Y-1.681 E5.21017
G1 X-4.275 Y-1.832 E5.21081
G1 X-4.409 Y-1.948 E5.21278
G1 X-4.597 Y-2.111 E5.2164
G1 X-5.271 Y-2.522 E5.22789
G1 X-6.024 Y-2.772 E5.23944
G1 X-6.652 Y-2.84 E5.24863
G1 X-7.343 Y-2.782 E5.25872
G1 X-8.235 Y-2.535 E5.27219
G1 X-9.062 Y-2.106 E5.28574
G1 X-9.785 Y-1.521 E5.29928
G1 X-10.372 Y-.798 E5.31283
G1 X-10.8 Y0.03 E5.32639
G1 X-11.049 Y0.927 E5.33994
G1 X-11.11 Y1.855 E5.35347
G1 X-10.979 Y2.777 E5.36702
G1 X-10.663 Y3.653 E5.38057
G1 X-10.176 Y4.445 E5.3941
G1 X-9.536 Y5.121 E5.40765
G1 X-8.771 Y5.653 E5.42121
G1 X-7.914 Y6.016 E5.43475
G1 X-7.015 Y6.195 E5.44809
G1 X-6.211 Y6.229 E5.4598
G1 X-5.883 Y5.514 E5.47124
G1 X-5.797 Y5.325 E5.47427
G1 X-5.626 Y5.443 E5.47613
G1 X-4.665 Y6.106 E5.49312
G1 X-4.103 Y5.812 E5.50235
G1 X-4.103 Y5.459 E5.50748
G1 X-3.939 Y5.572 E5.50827
G1 X-3.444 Y5.913 E5.51702
G1 X-3.182 Y6.109 E5.52178
G1 X-2.603 Y5.818 E5.53121
G1 X-2.603 Y5.459 E5.53643
G1 X-2.436 Y5.574 E5.53726
G1 X-1.944 Y5.913 E5.54596
G1 X-1.682 Y6.109 E5.55072
G1 X-1.103 Y5.818 E5.56015
G1 X-1.103 Y5.459 E5.56537
G1 X-.936 Y5.574 E5.5662
G1 X-.444 Y5.913 E5.5749
G1 X-.182 Y6.109 E5.57966
G1 X0.397 Y5.818 E5.58909
G1 X0.397 Y5.694 E5.59089
G1 X0.397 Y5.693 E5.59091
G1 X0.397 Y5.392 E5.59529
G1 X0.659 Y5.542 E5.59778
G1 X1.635 Y6.102 E5.61415
G1 X1.897 Y6.252 E5.61664
G0 F6650 X1.547 Y5.648
;TYPE:WALL-OUTER
G1 F2100 X1.547 Y4.793 E5.62908
G1 X2.755 Y5.625 E5.65043
G1 X2.854 Y5.699 E5.65223
G1 X3.047 Y5.602 E5.65537
G1 X3.047 Y4.793 E5.66714
G1 X4.255 Y5.625 E5.68849
G1 X4.354 Y5.699 E5.69028
G1 X4.547 Y5.602 E5.69343
G1 X4.547 Y5.126 E5.70035
G1 X4.547 Y5.125 E5.70037
G1 X4.547 Y4.793 E5.7052
G1 X4.821 Y4.982 E5.7079
G1 X5.822 Y5.672 E5.72559
G1 X6.125 Y5.609 E5.73009
G1 X6.353 Y5.36 E5.73501
G1 X6.381 Y5.05 E5.73954
G1 X6.215 Y4.353 E5.74996
G1 X6.21 Y4.332 E5.75028
G1 X6.223 Y4.195 E5.75228
G1 X6.297 Y4.117 E5.75384
G1 X6.438 Y4.1 E5.75591
G1 X6.458 Y4.107 E5.75622
G1 X11.268 Y5.808 E5.83046
G1 X11.558 Y5.939 E5.83509
G1 X11.817 Y6.117 E5.83966
G1 X12.048 Y6.341 E5.84434
G1 X12.229 Y6.592 E5.84885
G1 X12.369 Y6.883 E5.85354
G1 X12.421 Y7.106 E5.85688
G1 X12.469 Y7.319 E5.86005
G1 X12.251 Y7.319 E5.86199
G1 X12.25 Y7.319 E5.862
G1 X-3.763 Y7.319 E6.09501
G1 X-4.356 Y7.315 E6.10364
G1 X-6.824 Y7.214 E6.13959
G1 X-7.611 Y7.116 E6.15113
G1 X-8.173 Y6.968 E6.15958
G1 X-9.082 Y6.676 E6.17348
G1 X-9.916 Y6.242 E6.18716
G1 X-10.666 Y5.671 E6.20087
G1 X-11.308 Y4.982 E6.21458
G1 X-11.822 Y4.198 E6.22822
G1 X-12.201 Y3.325 E6.24207
G1 X-12.422 Y2.416 E6.25568
G1 X-12.487 Y1.471 E6.26946
G1 X-12.393 Y0.538 E6.28311
G1 X-12.138 Y-.374 E6.29689
G1 X-11.735 Y-1.226 E6.3106
G1 X-11.196 Y-1.995 E6.32427
G1 X-10.536 Y-2.659 E6.33789
G1 X-9.762 Y-3.21 E6.35171
G1 X-8.91 Y-3.619 E6.36547
G1 X-8.01 Y-3.876 E6.37909
G1 X-7.073 Y-3.977 E6.3928
G1 X-6.127 Y-3.918 E6.40659
G1 X-5.217 Y-3.702 E6.4202
G1 X-4.347 Y-3.331 E6.43396
