;FLAVOR:Marlin
;TIME:8011
;Filament used: 9.96727m
;Layer height: 0.2
;MINX:-62.875
;MINY:-51.325
;MINZ:0.2
;MAXX:62.875
;MAXY:51.325
;MAXZ:6
;Generated with Cura_SteamEngine 4.7.1
M82 ;absolute extrusion mode
; Vertex Delta Start Gcode
M0 Is my nozzle clean?
M400
G28 ; Home extruder
M106 S128 ; Start fan
M104 T0 R130 ; Set cold nozzle
M109 T0 R130 ; Wait for cold nozzle
M117 Leveling bed...
G29 ; Level Bed
G1 X0 Y100 Z1 F2000
G92 Z0.9 ; Set Z position (SET Z OFFSET HERE -> 1 - OFFSET)
M107 ; Stop fan
G90 ; Absolute positioning
M82 ; Extruder in absolute mode
M104 T0 S205
G92 E0 ; Reset extruder position
M109 T0 S205
M117 Priming nozzle...
M83
G1 E20 F100 ; purge/prime nozzle
M82
G92 E0 ; Reset extruder position
G4 S2 ; Wait 2 seconds
M355 S0 ; Turn off LED's
G1 Z15 F2000
G1 X0 Y85  F2000
M117 Vertex Delta printing
G92 E0
G92 E0
G1 F2400 E-3
;LAYER_COUNT:30
;LAYER:0
M107
G1 F600 Z0.5
G0 F6514.3 X62 Y51.325 Z0.5
;TYPE:SKIRT
G1 F600 Z0.2
G1 F2400 E0
G1 F4200 X-62 Y51.325 E3.60872
G1 X-62.261 Y51.285 E3.61641
G1 X-62.498 Y51.17 E3.62408
G1 X-62.69 Y50.988 E3.63177
G1 X-62.819 Y50.758 E3.63945
G1 X-62.875 Y50.45 E3.64856
G1 X-62.875 Y-50.45 E6.58501
G1 X-62.835 Y-50.711 E6.5927
G1 X-62.72 Y-50.948 E6.60036
G1 X-62.538 Y-51.14 E6.60806
G1 X-62.308 Y-51.269 E6.61574
G1 X-62 Y-51.325 E6.62485
G1 X62 Y-51.325 E10.23357
G1 X62.261 Y-51.285 E10.24126
G1 X62.498 Y-51.17 E10.24892
G1 X62.69 Y-50.988 E10.25662
G1 X62.819 Y-50.758 E10.2643
G1 X62.875 Y-50.45 E10.27341
G1 X62.875 Y50.45 E13.20986
G1 X62.835 Y50.711 E13.21755
G1 X62.72 Y50.948 E13.22521
G1 X62.538 Y51.14 E13.23291
G1 X62.308 Y51.269 E13.24059
G1 X62 Y51.325 E13.2497
G0 F6514.3 X62 Y50.975
G1 F4200 X-62 Y50.975 E16.85842
G1 X-62.2 Y50.935 E16.86436
G1 X-62.37 Y50.823 E16.87028
G1 X-62.484 Y50.653 E16.87624
G1 X-62.525 Y50.45 E16.88227
G1 X-62.525 Y-50.45 E19.81872
G1 X-62.485 Y-50.65 E19.82466
G1 X-62.373 Y-50.82 E19.83058
G1 X-62.203 Y-50.934 E19.83654
G1 X-62 Y-50.975 E19.84257
G1 X62 Y-50.975 E23.45129
G1 X62.2 Y-50.935 E23.45723
G1 X62.37 Y-50.823 E23.46315
G1 X62.484 Y-50.653 E23.46911
G1 X62.525 Y-50.45 E23.47514
G1 X62.525 Y50.45 E26.41159
G1 X62.485 Y50.65 E26.41753
G1 X62.373 Y50.82 E26.42345
G1 X62.203 Y50.934 E26.42941
G1 X62 Y50.975 E26.43543
G0 F6514.3 X62 Y50.625
G1 F4200 X-62 Y50.625 E30.04416
G1 X-62.11 Y50.586 E30.04755
G1 X-62.175 Y50.45 E30.05194
G1 X-62.175 Y-50.45 E32.9884
G1 X-62.136 Y-50.56 E32.99179
G1 X-62 Y-50.625 E32.99618
G1 X62 Y-50.625 E36.6049
G1 X62.11 Y-50.586 E36.6083
G1 X62.175 Y-50.45 E36.61269
G1 X62.175 Y50.45 E39.54914
G1 X62.136 Y50.56 E39.55254
G1 X62 Y50.625 E39.55692
;MESH:Keurig Tray.stl
G0 F6514.3 X61.825 Y50.275
;TYPE:WALL-OUTER
G1 F2400 X-61.825 Y50.275 E43.15546
G1 X-61.825 Y-50.275 E46.08173
G1 X61.825 Y-50.275 E49.68027
G1 X61.825 Y50.275 E52.60654
G0 F6514.3 X61.65 Y50.275
G0 X61.475 Y49.925
;TYPE:WALL-INNER
G1 F2400 X-61.475 Y49.925 E56.18471
G1 X-61.475 Y-49.925 E59.0906
G1 X61.475 Y-49.925 E62.66877
G1 X61.475 Y49.925 E65.57467
G0 F6514.3 X61.135 Y49.585
;TYPE:SKIN
G1 F2400 X-61.135 Y49.585 E69.13304
G1 X-61.135 Y-49.585 E72.01915
G1 X61.135 Y-49.585 E75.57753
G1 X61.135 Y49.585 E78.46363
G1 F2400 E75.46363
G0 F6514.3 X61.39 Y49.585
G0 X61.39 Y-48.907
G0 X60.977 Y-48.907
G1 F2400 E78.46363
G1 X60.456 Y-49.427 E78.48506
G0 F6514.3 X59.961 Y-49.427
G1 F2400 X60.977 Y-48.412 E78.52685
G0 F6514.3 X60.977 Y-47.917
G1 F2400 X59.466 Y-49.427 E78.58902
G0 F6514.3 X58.971 Y-49.427
G1 F2400 X60.977 Y-47.422 E78.67156
G0 F6514.3 X60.977 Y-46.927
G1 F2400 X58.477 Y-49.427 E78.77445
G0 F6514.3 X57.982 Y-49.427
G1 F2400 X60.977 Y-46.432 E78.89772
G0 F6514.3 X60.977 Y-45.937
G1 F2400 X57.487 Y-49.427 E79.04136
G0 F6514.3 X56.992 Y-49.427
G1 F2400 X60.977 Y-45.442 E79.20537
G0 F6514.3 X60.977 Y-44.947
G1 F2400 X56.497 Y-49.427 E79.38975
G0 F6514.3 X56.002 Y-49.427
G1 F2400 X60.977 Y-44.452 E79.59451
G0 F6514.3 X60.977 Y-43.957
G1 F2400 X55.507 Y-49.427 E79.81964
G0 F6514.3 X55.012 Y-49.427
G1 F2400 X60.977 Y-43.462 E80.06515
G0 F6514.3 X60.977 Y-42.967
G1 F2400 X54.517 Y-49.427 E80.33102
G0 F6514.3 X54.022 Y-49.427
G1 F2400 X60.977 Y-42.472 E80.61727
G0 F6514.3 X60.977 Y-41.977
G1 F2400 X53.527 Y-49.427 E80.92389
G0 F6514.3 X53.032 Y-49.427
G1 F2400 X60.977 Y-41.482 E81.25089
G0 F6514.3 X60.977 Y-40.987
G1 F2400 X52.537 Y-49.427 E81.59826
G0 F6514.3 X52.042 Y-49.427
G1 F2400 X60.977 Y-40.492 E81.966
G0 F6514.3 X60.977 Y-39.997
G1 F2400 X51.547 Y-49.427 E82.35411
G0 F6514.3 X51.052 Y-49.427
G1 F2400 X60.977 Y-39.502 E82.7626
G0 F6514.3 X60.977 Y-39.007
G1 F2400 X50.557 Y-49.427 E83.19146
G0 F6514.3 X50.062 Y-49.427
G1 F2400 X60.977 Y-38.512 E83.64069
G0 F6514.3 X60.977 Y-38.017
G1 F2400 X49.567 Y-49.427 E84.11029
G0 F6514.3 X49.072 Y-49.427
G1 F2400 X60.977 Y-37.522 E84.60027
G0 F6514.3 X60.977 Y-37.027
G1 F2400 X48.577 Y-49.427 E85.11062
G0 F6514.3 X48.082 Y-49.427
G1 F2400 X60.977 Y-36.532 E85.64135
G0 F6514.3 X60.977 Y-36.037
G1 F2400 X47.587 Y-49.427 E86.19244
G0 F6514.3 X47.092 Y-49.427
G1 F2400 X60.977 Y-35.542 E86.76391
G0 F6514.3 X60.977 Y-35.047
G1 F2400 X46.597 Y-49.427 E87.35575
G0 F6514.3 X46.102 Y-49.427
G1 F2400 X60.977 Y-34.552 E87.96797
G0 F6514.3 X60.977 Y-34.057
G1 F2400 X45.607 Y-49.427 E88.60056
G0 F6514.3 X45.112 Y-49.427
G1 F2400 X60.977 Y-33.562 E89.25352
G0 F6514.3 X60.977 Y-33.067
G1 F2400 X44.617 Y-49.427 E89.92685
G0 F6514.3 X44.122 Y-49.427
G1 F2400 X60.977 Y-32.572 E90.62056
G0 F6514.3 X60.977 Y-32.077
G1 F2400 X43.627 Y-49.427 E91.33464
G0 F6514.3 X43.132 Y-49.427
G1 F2400 X60.977 Y-31.582 E92.06909
G0 F6514.3 X60.977 Y-31.087
G1 F2400 X42.637 Y-49.427 E92.82391
G0 F6514.3 X42.142 Y-49.427
G1 F2400 X60.977 Y-30.592 E93.59911
G0 F6514.3 X60.977 Y-30.098
G1 F2400 X41.647 Y-49.427 E94.39466
G0 F6514.3 X41.152 Y-49.427
G1 F2400 X60.977 Y-29.603 E95.21059
G0 F6514.3 X60.977 Y-29.108
G1 F2400 X40.657 Y-49.427 E96.04688
G0 F6514.3 X40.162 Y-49.427
G1 F2400 X60.977 Y-28.613 E96.90355
G0 F6514.3 X60.977 Y-28.118
G1 F2400 X39.667 Y-49.427 E97.78059
G0 F6514.3 X39.173 Y-49.427
G1 F2400 X60.977 Y-27.623 E98.67799
G0 F6514.3 X60.977 Y-27.128
G1 F2400 X38.678 Y-49.427 E99.59575
G0 F6514.3 X38.183 Y-49.427
G1 F2400 X60.977 Y-26.633 E100.53389
G0 F6514.3 X60.977 Y-26.138
G1 F2400 X37.688 Y-49.427 E101.49241
G0 F6514.3 X37.193 Y-49.427
G1 F2400 X60.977 Y-25.643 E102.47129
G0 F6514.3 X60.977 Y-25.148
G1 F2400 X36.698 Y-49.427 E103.47055
G0 F6514.3 X36.203 Y-49.427
G1 F2400 X60.977 Y-24.653 E104.49018
G0 F6514.3 X60.977 Y-24.158
G1 F2400 X35.708 Y-49.427 E105.53019
G0 F6514.3 X35.213 Y-49.427
G1 F2400 X60.977 Y-23.663 E106.59056
G0 F6514.3 X60.977 Y-23.168
G1 F2400 X34.718 Y-49.427 E107.67131
G0 F6514.3 X34.223 Y-49.427
G1 F2400 X60.977 Y-22.673 E108.77244
G0 F6514.3 X60.977 Y-22.178
G1 F2400 X33.728 Y-49.427 E109.89393
G0 F6514.3 X33.233 Y-49.427
G1 F2400 X60.977 Y-21.683 E111.0358
G0 F6514.3 X60.977 Y-21.188
G1 F2400 X32.738 Y-49.427 E112.19804
G0 F6514.3 X32.243 Y-49.427
G1 F2400 X60.977 Y-20.693 E113.38066
G0 F6514.3 X60.977 Y-20.198
G1 F2400 X31.748 Y-49.427 E114.58364
G0 F6514.3 X31.253 Y-49.427
G1 F2400 X60.977 Y-19.703 E115.807
G0 F6514.3 X60.977 Y-19.208
G1 F2400 X30.758 Y-49.427 E117.05074
G0 F6514.3 X30.263 Y-49.427
G1 F2400 X60.977 Y-18.713 E118.31484
G0 F6514.3 X60.977 Y-18.218
G1 F2400 X29.768 Y-49.427 E119.59932
G0 F6514.3 X29.273 Y-49.427
G1 F2400 X60.977 Y-17.723 E120.90417
G0 F6514.3 X60.977 Y-17.228
G1 F2400 X28.778 Y-49.427 E122.2294
G0 F6514.3 X28.283 Y-49.427
G1 F2400 X60.977 Y-16.733 E123.575
G0 F6514.3 X60.977 Y-16.238
G1 F2400 X27.788 Y-49.427 E124.94097
G0 F6514.3 X27.293 Y-49.427
G1 F2400 X60.977 Y-15.743 E126.32731
G0 F6514.3 X60.977 Y-15.248
G1 F2400 X26.798 Y-49.427 E127.73402
G0 F6514.3 X26.303 Y-49.427
G1 F2400 X60.977 Y-14.753 E129.16111
G0 F6514.3 X60.977 Y-14.258
G1 F2400 X25.808 Y-49.427 E130.60858
G0 F6514.3 X25.313 Y-49.427
G1 F2400 X60.977 Y-13.763 E132.07641
G0 F6514.3 X60.977 Y-13.268
G1 F2400 X24.818 Y-49.427 E133.56462
G0 F6514.3 X24.323 Y-49.427
G1 F2400 X60.977 Y-12.773 E135.0732
G0 F6514.3 X60.977 Y-12.278
G1 F2400 X23.828 Y-49.427 E136.60215
G0 F6514.3 X23.333 Y-49.427
G1 F2400 X60.977 Y-11.783 E138.15148
G0 F6514.3 X60.977 Y-11.288
G1 F2400 X22.838 Y-49.427 E139.72118
G0 F6514.3 X22.343 Y-49.427
G1 F2400 X60.977 Y-10.793 E141.31125
G0 F6514.3 X60.977 Y-10.299
G1 F2400 X21.848 Y-49.427 E142.92167
G0 F6514.3 X21.353 Y-49.427
G1 F2400 X60.977 Y-9.804 E144.55247
G0 F6514.3 X60.977 Y-9.309
G1 F2400 X20.858 Y-49.427 E146.20364
G0 F6514.3 X20.363 Y-49.427
G1 F2400 X60.977 Y-8.814 E147.87518
G0 F6514.3 X60.977 Y-8.319
G1 F2400 X19.868 Y-49.427 E149.5671
G0 F6514.3 X19.374 Y-49.427
G1 F2400 X60.977 Y-7.824 E151.27936
G0 F6514.3 X60.977 Y-7.329
G1 F2400 X18.879 Y-49.427 E153.01201
G0 F6514.3 X18.384 Y-49.427
G1 F2400 X60.977 Y-6.834 E154.76502
G0 F6514.3 X60.977 Y-6.339
G1 F2400 X17.889 Y-49.427 E156.53841
G0 F6514.3 X17.394 Y-49.427
G1 F2400 X60.977 Y-5.844 E158.33216
G0 F6514.3 X60.977 Y-5.349
G1 F2400 X16.899 Y-49.427 E160.1463
G0 F6514.3 X16.404 Y-49.427
G1 F2400 X60.977 Y-4.854 E161.9808
G0 F6514.3 X60.977 Y-4.359
G1 F2400 X15.909 Y-49.427 E163.83568
G0 F6514.3 X15.414 Y-49.427
G1 F2400 X60.977 Y-3.864 E165.71093
G0 F6514.3 X60.977 Y-3.369
G1 F2400 X14.919 Y-49.427 E167.60655
G0 F6514.3 X14.424 Y-49.427
G1 F2400 X60.977 Y-2.874 E169.52255
G0 F6514.3 X60.977 Y-2.379
G1 F2400 X13.929 Y-49.427 E171.45892
G0 F6514.3 X13.434 Y-49.427
G1 F2400 X60.977 Y-1.884 E173.41566
G0 F6514.3 X60.977 Y-1.389
G1 F2400 X12.939 Y-49.427 E175.39278
G0 F6514.3 X12.444 Y-49.427
G1 F2400 X60.977 Y-.894 E177.39027
G0 F6514.3 X60.977 Y-.399
G1 F2400 X11.949 Y-49.427 E179.40813
G0 F6514.3 X11.454 Y-49.427
G1 F2400 X60.977 Y0.095 E181.44634
G0 F6514.3 X60.977 Y0.59
G1 F2400 X10.959 Y-49.427 E183.50493
G0 F6514.3 X10.464 Y-49.427
G1 F2400 X60.977 Y1.085 E185.58389
G0 F6514.3 X60.977 Y1.58
G1 F2400 X9.969 Y-49.427 E187.68322
G0 F6514.3 X9.474 Y-49.427
G1 F2400 X60.977 Y2.075 E189.80292
G0 F6514.3 X60.977 Y2.57
G1 F2400 X8.979 Y-49.427 E191.943
G0 F6514.3 X8.484 Y-49.427
G1 F2400 X60.977 Y3.065 E194.10345
G0 F6514.3 X60.977 Y3.56
G1 F2400 X7.989 Y-49.427 E196.28427
G0 F6514.3 X7.494 Y-49.427
G1 F2400 X60.977 Y4.055 E198.48547
G0 F6514.3 X60.977 Y4.55
G1 F2400 X6.999 Y-49.427 E200.70704
G0 F6514.3 X6.504 Y-49.427
G1 F2400 X60.977 Y5.045 E202.94898
G0 F6514.3 X60.977 Y5.54
G1 F2400 X6.009 Y-49.427 E205.2113
G0 F6514.3 X5.514 Y-49.427
G1 F2400 X60.977 Y6.035 E207.49398
G0 F6514.3 X60.977 Y6.53
G1 F2400 X5.019 Y-49.427 E209.79704
G0 F6514.3 X4.524 Y-49.427
G1 F2400 X60.977 Y7.025 E212.12048
G0 F6514.3 X60.977 Y7.52
G1 F2400 X4.029 Y-49.427 E214.46428
G0 F6514.3 X3.534 Y-49.427
G1 F2400 X60.977 Y8.015 E216.82846
G0 F6514.3 X60.977 Y8.51
G1 F2400 X3.039 Y-49.427 E219.21302
G0 F6514.3 X2.544 Y-49.427
G1 F2400 X60.977 Y9.005 E221.61794
G0 F6514.3 X60.977 Y9.499
G1 F2400 X2.049 Y-49.427 E224.04322
G0 F6514.3 X1.554 Y-49.427
G1 F2400 X60.977 Y9.994 E226.48887
G0 F6514.3 X60.977 Y10.489
G1 F2400 X1.059 Y-49.427 E228.95489
G0 F6514.3 X0.564 Y-49.427
G1 F2400 X60.977 Y10.984 E231.44129
G0 F6514.3 X60.977 Y11.479
G1 F2400 X0.07 Y-49.427 E233.94803
G0 F6514.3 X-.424 Y-49.427
G1 F2400 X60.977 Y11.974 E236.47513
G0 F6514.3 X60.977 Y12.469
G1 F2400 X-.919 Y-49.427 E239.02261
G0 F6514.3 X-1.414 Y-49.427
G1 F2400 X60.977 Y12.964 E241.59045
G0 F6514.3 X60.977 Y13.459
G1 F2400 X-1.909 Y-49.427 E244.17867
G0 F6514.3 X-2.404 Y-49.427
G1 F2400 X60.977 Y13.954 E246.78727
G0 F6514.3 X60.977 Y14.449
G1 F2400 X-2.899 Y-49.427 E249.41623
G0 F6514.3 X-3.394 Y-49.427
G1 F2400 X60.977 Y14.944 E252.06557
G0 F6514.3 X60.977 Y15.439
G1 F2400 X-3.889 Y-49.427 E254.73528
G0 F6514.3 X-4.384 Y-49.427
G1 F2400 X60.977 Y15.934 E257.42536
G0 F6514.3 X60.977 Y16.429
G1 F2400 X-4.879 Y-49.427 E260.13582
G0 F6514.3 X-5.374 Y-49.427
G1 F2400 X60.977 Y16.924 E262.86665
G0 F6514.3 X60.977 Y17.419
G1 F2400 X-5.869 Y-49.427 E265.61785
G0 F6514.3 X-6.364 Y-49.427
G1 F2400 X60.977 Y17.914 E268.38942
G0 F6514.3 X60.977 Y18.409
G1 F2400 X-6.859 Y-49.427 E271.18137
G0 F6514.3 X-7.354 Y-49.427
G1 F2400 X60.977 Y18.904 E273.99369
G0 F6514.3 X60.977 Y19.399
G1 F2400 X-7.849 Y-49.427 E276.82639
G0 F6514.3 X-8.344 Y-49.427
G1 F2400 X60.977 Y19.894 E279.67945
G0 F6514.3 X60.977 Y20.389
G1 F2400 X-8.839 Y-49.427 E282.55289
G0 F6514.3 X-9.334 Y-49.427
G1 F2400 X60.977 Y20.884 E285.4467
G0 F6514.3 X60.977 Y21.379
G1 F2400 X-9.829 Y-49.427 E288.36089
G0 F6514.3 X-10.324 Y-49.427
G1 F2400 X60.977 Y21.874 E291.29545
G0 F6514.3 X60.977 Y22.369
G1 F2400 X-10.819 Y-49.427 E294.25038
G0 F6514.3 X-11.314 Y-49.427
G1 F2400 X60.977 Y22.864 E297.22568
G0 F6514.3 X60.977 Y23.359
G1 F2400 X-11.809 Y-49.427 E300.22136
G0 F6514.3 X-12.304 Y-49.427
G1 F2400 X60.977 Y23.854 E303.23741
G0 F6514.3 X60.977 Y24.349
G1 F2400 X-12.799 Y-49.427 E306.27383
G0 F6514.3 X-13.294 Y-49.427
G1 F2400 X60.977 Y24.844 E309.33062
G0 F6514.3 X60.977 Y25.339
G1 F2400 X-13.789 Y-49.427 E312.40779
G0 F6514.3 X-14.284 Y-49.427
G1 F2400 X60.977 Y25.834 E315.50533
G0 F6514.3 X60.977 Y26.329
G1 F2400 X-14.779 Y-49.427 E318.62325
G0 F6514.3 X-15.274 Y-49.427
G1 F2400 X60.977 Y26.824 E321.76153
G0 F6514.3 X60.977 Y27.319
G1 F2400 X-15.769 Y-49.427 E324.92019
G0 F6514.3 X-16.264 Y-49.427
G1 F2400 X60.977 Y27.814 E328.09923
G0 F6514.3 X60.977 Y28.309
G1 F2400 X-16.759 Y-49.427 E331.29863
G0 F6514.3 X-17.254 Y-49.427
G1 F2400 X60.977 Y28.803 E334.51839
G0 F6514.3 X60.977 Y29.298
G1 F2400 X-17.749 Y-49.427 E337.75852
G0 F6514.3 X-18.244 Y-49.427
G1 F2400 X60.977 Y29.793 E341.01902
G0 F6514.3 X60.977 Y30.288
G1 F2400 X-18.739 Y-49.427 E344.2999
G0 F6514.3 X-19.234 Y-49.427
G1 F2400 X60.977 Y30.783 E347.60115
G0 F6514.3 X60.977 Y31.278
G1 F2400 X-19.728 Y-49.427 E350.92275
G0 F6514.3 X-20.223 Y-49.427
G1 F2400 X60.977 Y31.773 E354.26472
G0 F6514.3 X60.977 Y32.268
G1 F2400 X-20.718 Y-49.427 E357.62707
G0 F6514.3 X-21.213 Y-49.427
G1 F2400 X60.977 Y32.763 E361.00979
G0 F6514.3 X60.977 Y33.258
G1 F2400 X-21.708 Y-49.427 E364.41288
G0 F6514.3 X-22.203 Y-49.427
G1 F2400 X60.977 Y33.753 E367.83635
G0 F6514.3 X60.977 Y34.248
G1 F2400 X-22.698 Y-49.427 E371.28019
G0 F6514.3 X-23.193 Y-49.427
G1 F2400 X60.977 Y34.743 E374.7444
G0 F6514.3 X60.977 Y35.238
G1 F2400 X-23.688 Y-49.427 E378.22898
G0 F6514.3 X-24.183 Y-49.427
G1 F2400 X60.977 Y35.733 E381.73394
G0 F6514.3 X60.977 Y36.228
G1 F2400 X-24.678 Y-49.427 E385.25927
G0 F6514.3 X-25.173 Y-49.427
G1 F2400 X60.977 Y36.723 E388.80497
G0 F6514.3 X60.977 Y37.218
G1 F2400 X-25.668 Y-49.427 E392.37105
G0 F6514.3 X-26.163 Y-49.427
G1 F2400 X60.977 Y37.713 E395.9575
G0 F6514.3 X60.977 Y38.208
G1 F2400 X-26.658 Y-49.427 E399.56432
G0 F6514.3 X-27.153 Y-49.427
G1 F2400 X60.977 Y38.703 E403.19151
G0 F6514.3 X60.977 Y39.198
G1 F2400 X-27.648 Y-49.427 E406.83908
G0 F6514.3 X-28.143 Y-49.427
G1 F2400 X60.977 Y39.693 E410.50702
G0 F6514.3 X60.977 Y40.188
G1 F2400 X-28.638 Y-49.427 E414.19533
G0 F6514.3 X-29.133 Y-49.427
G1 F2400 X60.977 Y40.683 E417.90402
G0 F6514.3 X60.977 Y41.178
G1 F2400 X-29.628 Y-49.427 E421.63308
G0 F6514.3 X-30.123 Y-49.427
G1 F2400 X60.977 Y41.673 E425.38251
G0 F6514.3 X60.977 Y42.168
G1 F2400 X-30.618 Y-49.427 E429.15231
G0 F6514.3 X-31.113 Y-49.427
G1 F2400 X60.977 Y42.663 E432.94249
G0 F6514.3 X60.977 Y43.158
G1 F2400 X-31.608 Y-49.427 E436.75304
G0 F6514.3 X-32.103 Y-49.427
G1 F2400 X60.977 Y43.653 E440.58396
G0 F6514.3 X60.977 Y44.148
G1 F2400 X-32.598 Y-49.427 E444.43526
G0 F6514.3 X-33.093 Y-49.427
G1 F2400 X60.977 Y44.643 E448.30693
G0 F6514.3 X60.977 Y45.138
G1 F2400 X-33.588 Y-49.427 E452.19897
G0 F6514.3 X-34.083 Y-49.427
G1 F2400 X60.977 Y45.633 E456.11138
G0 F6514.3 X60.977 Y46.128
G1 F2400 X-34.578 Y-49.427 E460.04417
G0 F6514.3 X-35.073 Y-49.427
G1 F2400 X60.977 Y46.623 E463.99733
G0 F6514.3 X60.977 Y47.118
G1 F2400 X-35.568 Y-49.427 E467.97087
G0 F6514.3 X-36.063 Y-49.427
G1 F2400 X60.977 Y47.613 E471.96477
G0 F6514.3 X60.977 Y48.108
G1 F2400 X-36.558 Y-49.427 E475.97905
G0 F6514.3 X-37.053 Y-49.427
G1 F2400 X60.977 Y48.602 E480.01368
G0 F6514.3 X60.977 Y49.097
G1 F2400 X-37.548 Y-49.427 E484.06869
G0 F6514.3 X-38.043 Y-49.427
