;FLAVOR:Marlin
;TIME:2062
;Filament used: 1.53332m
;Layer height: 0.2
;MINX:-30.793
;MINY:-9.416
;MINZ:0.2
;MAXX:30.962
;MAXY:9.407
;MAXZ:42.4
;Generated with Cura_SteamEngine 4.8.0
M82 ;absolute extrusion mode
; Vertex Delta Start Gcode
M0 Is my nozzle clean?
M400
G28 ; Home extruder
M106 S128 ; Start fan
M104 T0 R130 ; Set cold nozzle
M109 T0 R130 ; Wait for cold nozzle
M117 Leveling bed...
G29 ; Level Bed
G1 X0 Y100 Z1 F2000
G92 Z0.9 ; Set Z position (SET Z OFFSET HERE -> 1 - OFFSET)
M107 ; Stop fan
G90 ; Absolute positioning
M82 ; Extruder in absolute mode
M104 T0 S205
G92 E0 ; Reset extruder position
M109 T0 S205
M117 Priming nozzle...
M83
G1 E20 F100 ; purge/prime nozzle
M82
G92 E0 ; Reset extruder position
G4 S2 ; Wait 2 seconds
M355 S0 ; Turn off LED's
G1 Z15 F2000
G1 X0 Y85  F2000
M117 Vertex Delta printing
G92 E0
G92 E0
G1 F1500 E-3
;LAYER_COUNT:215
;LAYER:0
M107
G1 F600 Z1.2
G0 F6650 X1.337 Y-7.199 Z1.2
;TYPE:SKIRT
G1 F600 Z0.2
G1 F1500 E0
G1 F4200 X4.017 Y-7.275 E0.07803
G1 X6.76 Y-7.43 E0.15798
G1 X9.468 Y-7.661 E0.23708
G1 X12.164 Y-7.968 E0.31605
G1 X14.857 Y-8.352 E0.39521
G1 X17.558 Y-8.815 E0.47496
G1 X18.962 Y-9.087 E0.51658
G1 X20.173 Y-9.331 E0.55254
G1 X20.823 Y-9.405 E0.57158
G1 X21.3 Y-9.416 E0.58546
G1 X21.97 Y-9.406 E0.60496
G1 X22.524 Y-9.357 E0.62115
G1 X23.066 Y-9.23 E0.63735
G1 X23.584 Y-9.027 E0.65354
G1 X24.067 Y-8.751 E0.66973
G1 X24.544 Y-8.375 E0.68741
G1 X24.738 Y-8.193 E0.69515
G1 X25.267 Y-7.67 E0.7168
G1 X25.75 Y-7.171 E0.73701
G1 X26.108 Y-6.744 E0.75322
G1 X26.28 Y-6.484 E0.7623
G1 X26.853 Y-5.538 E0.79448
G1 X27.146 Y-5.037 E0.81137
G1 X28.566 Y-2.762 E0.88942
G1 X29.812 Y-.874 E0.95525
G1 X30.299 Y-.153 E0.98058
G1 X30.577 Y0.329 E0.99677
G1 X30.783 Y0.846 E1.01297
G1 X30.912 Y1.387 E1.02915
G1 X30.962 Y1.902 E1.04421
G1 X30.96 Y2.706 E1.06761
G1 X30.911 Y3.26 E1.08379
G1 X30.782 Y3.801 E1.09998
G1 X30.577 Y4.318 E1.11617
G1 X30.3 Y4.801 E1.13237
G1 X29.957 Y5.239 E1.14856
G1 X29.555 Y5.624 E1.16476
G1 X29.102 Y5.946 E1.18093
G1 X28.607 Y6.201 E1.19714
G1 X28.058 Y6.388 E1.21402
G1 X27.434 Y6.537 E1.23269
G1 X26.041 Y6.842 E1.27419
G1 X25.036 Y7.047 E1.30404
G1 X24.762 Y7.096 E1.31214
G1 X19.804 Y7.937 E1.45849
G1 X18.832 Y8.087 E1.48711
G1 X18.494 Y8.131 E1.49703
G1 X13.591 Y8.722 E1.64076
G1 X12.562 Y8.83 E1.67087
G1 X12.329 Y8.849 E1.67767
G1 X7.278 Y9.212 E1.82505
G1 X6.378 Y9.264 E1.85128
G1 X5.911 Y9.28 E1.86488
G1 X0.975 Y9.398 E2.00857
G1 X-0.058 Y9.407 E2.03864
G1 X-.356 Y9.402 E2.04731
G1 X-5.328 Y9.282 E2.19205
G1 X-6.328 Y9.242 E2.22118
G1 X-6.596 Y9.225 E2.22899
G1 X-11.649 Y8.861 E2.37643
G1 X-12.611 Y8.777 E2.40453
G1 X-12.933 Y8.741 E2.41396
G1 X-17.9 Y8.139 E2.55957
G1 X-18.896 Y8.004 E2.58882
G1 X-24.084 Y7.124 E2.74197
G1 X-25.078 Y6.939 E2.77139
G1 X-25.343 Y6.884 E2.77927
G1 X-27.131 Y6.49 E2.83255
G1 X-27.803 Y6.332 E2.85264
G1 X-28.334 Y6.166 E2.86883
G1 X-28.836 Y5.926 E2.88503
G1 X-29.298 Y5.616 E2.90122
G1 X-29.711 Y5.244 E2.91739
G1 X-30.067 Y4.816 E2.9336
G1 X-30.357 Y4.341 E2.94979
G1 X-30.577 Y3.83 E2.96598
G1 X-30.721 Y3.292 E2.98219
G1 X-30.788 Y2.704 E2.99941
G1 X-30.793 Y1.975 E3.02063
G1 X-30.747 Y1.42 E3.03684
G1 X-30.622 Y0.878 E3.05303
G1 X-30.421 Y0.359 E3.06922
G1 X-30.174 Y-0.085 E3.08401
G1 X-29.983 Y-.382 E3.09429
G1 X-28.5 Y-2.745 E3.17548
G1 X-27.119 Y-5.093 E3.25475
G1 X-26.645 Y-5.946 E3.28315
G1 X-26.372 Y-6.418 E3.29902
G1 X-26.06 Y-6.879 E3.31522
G1 X-25.713 Y-7.27 E3.33044
G1 X-25.632 Y-7.355 E3.33385
G1 X-25.199 Y-7.793 E3.35178
G1 X-24.67 Y-8.308 E3.37326
G1 X-24.245 Y-8.666 E3.38943
G1 X-23.772 Y-8.96 E3.40564
G1 X-23.262 Y-9.183 E3.42184
G1 X-22.726 Y-9.331 E3.43802
G1 X-22.113 Y-9.403 E3.45599
G1 X-21.591 Y-9.414 E3.47118
G1 X-20.936 Y-9.406 E3.49025
G1 X-20.302 Y-9.344 E3.50878
G1 X-20.085 Y-9.304 E3.51521
G1 X-17.615 Y-8.808 E3.58853
G1 X-14.924 Y-8.347 E3.66798
G1 X-12.247 Y-7.967 E3.74667
G1 X-9.548 Y-7.66 E3.82572
G1 X-6.835 Y-7.429 E3.90497
G1 X-4.095 Y-7.275 E3.98483
G1 X-1.413 Y-7.199 E4.06292
G1 X1.337 Y-7.199 E4.14295
G0 F6650 X1.311 Y-6.849
G1 F4200 X4.082 Y-6.927 E4.22362
G1 X6.775 Y-7.08 E4.30212
G1 X9.499 Y-7.312 E4.38169
G1 X12.188 Y-7.618 E4.46045
G1 X14.925 Y-8.008 E4.54091
G1 X17.588 Y-8.465 E4.61954
G1 X19.031 Y-8.744 E4.66231
G1 X20.242 Y-8.988 E4.69826
G1 X20.834 Y-9.055 E4.7156
G1 X21.295 Y-9.066 E4.72902
G1 X21.965 Y-9.056 E4.74852
G1 X22.493 Y-9.008 E4.76395
G1 X23.008 Y-8.881 E4.77939
G1 X23.499 Y-8.679 E4.79484
G1 X23.953 Y-8.405 E4.81027
G1 X24.413 Y-8.019 E4.82775
G1 X24.493 Y-7.943 E4.83096
G1 X25.016 Y-7.427 E4.85234
G1 X25.499 Y-6.928 E4.87255
G1 X25.981 Y-6.303 E4.89552
G1 X26.551 Y-5.361 E4.92757
G1 X26.835 Y-4.876 E4.94392
G1 X28.292 Y-2.541 E5.02402
G1 X29.52 Y-.681 E5.08889
G1 X30.009 Y0.043 E5.11431
G1 X30.273 Y0.504 E5.12977
G1 X30.464 Y0.999 E5.14521
G1 X30.578 Y1.517 E5.16065
G1 X30.617 Y2.08 E5.17707
G1 X30.61 Y2.699 E5.19509
G1 X30.561 Y3.228 E5.21055
G1 X30.433 Y3.743 E5.226
G1 X30.229 Y4.233 E5.24144
G1 X29.954 Y4.686 E5.25686
G1 X29.614 Y5.094 E5.27232
G1 X29.216 Y5.445 E5.28776
G1 X28.771 Y5.733 E5.30319
G1 X28.287 Y5.951 E5.31864
G1 X27.71 Y6.115 E5.3361
G1 X27.324 Y6.203 E5.34762
G1 X25.971 Y6.499 E5.38793
G1 X24.974 Y6.703 E5.41754
G1 X24.704 Y6.751 E5.42552
G1 X19.75 Y7.591 E5.57176
G1 X18.786 Y7.74 E5.60014
G1 X18.452 Y7.784 E5.60995
G1 X13.554 Y8.374 E5.75352
G1 X12.533 Y8.481 E5.7834
G1 X12.304 Y8.5 E5.79009
G1 X7.257 Y8.862 E5.93734
G1 X6.269 Y8.918 E5.96614
G1 X5.902 Y8.93 E5.97683
G1 X0.972 Y9.048 E6.12035
G1 X-0.052 Y9.057 E6.15015
G1 X-.348 Y9.052 E6.15877
G1 X-5.314 Y8.932 E6.30333
G1 X-6.306 Y8.893 E6.33222
G1 X-6.571 Y8.876 E6.33995
G1 X-11.619 Y8.512 E6.48724
G1 X-12.573 Y8.429 E6.51511
G1 X-12.891 Y8.393 E6.52443
G1 X-17.853 Y7.792 E6.66989
G1 X-18.84 Y7.658 E6.69888
G1 X-19.086 Y7.618 E6.70613
G1 X-24.021 Y6.779 E6.85181
G1 X-25.007 Y6.597 E6.88099
G1 X-25.268 Y6.542 E6.88875
G1 X-27.051 Y6.149 E6.94189
G1 X-27.723 Y5.991 E6.96198
G1 X-28.229 Y5.831 E6.97742
G1 X-28.705 Y5.597 E6.99286
G1 X-29.141 Y5.294 E7.00831
G1 X-29.526 Y4.929 E7.02375
G1 X-29.852 Y4.511 E7.03918
G1 X-30.112 Y4.048 E7.05463
G1 X-30.299 Y3.551 E7.07009
G1 X-30.409 Y3.032 E7.08553
G1 X-30.445 Y2.53 E7.10017
G1 X-30.443 Y1.978 E7.11624
G1 X-30.397 Y1.45 E7.13166
G1 X-30.273 Y0.934 E7.14711
G1 X-30.073 Y0.442 E7.16256
G1 X-29.662 Y-.234 E7.18559
G1 X-28.215 Y-2.541 E7.26484
G1 X-26.813 Y-4.923 E7.34528
G1 X-26.342 Y-5.771 E7.37351
G1 X-26.069 Y-6.243 E7.38938
G1 X-25.601 Y-6.877 E7.41231
G1 X-25.383 Y-7.109 E7.42158
G1 X-24.955 Y-7.542 E7.4393
G1 X-24.426 Y-8.057 E7.46078
G1 X-24.019 Y-8.397 E7.47622
G1 X-23.565 Y-8.673 E7.49168
G1 X-23.076 Y-8.877 E7.5071
G1 X-22.561 Y-9.006 E7.52255
G1 X-21.966 Y-9.059 E7.53993
G1 X-21.5 Y-9.064 E7.5535
G1 X-20.941 Y-9.056 E7.56977
G1 X-20.365 Y-9 E7.58661
G1 X-20.154 Y-8.961 E7.59285
G1 X-17.674 Y-8.463 E7.66647
G1 X-14.997 Y-8.004 E7.74551
G1 X-12.301 Y-7.621 E7.82476
G1 X-9.543 Y-7.308 E7.90554
G1 X-6.85 Y-7.079 E7.9842
G1 X-4.161 Y-6.927 E8.06258
G1 X-1.387 Y-6.849 E8.14334
G1 X1.311 Y-6.849 E8.22186
G0 F6650 X1.321 Y-6.499
G1 F4200 X4.075 Y-6.577 E8.30204
G1 X6.792 Y-6.731 E8.38124
G1 X9.534 Y-6.964 E8.46133
G1 X12.273 Y-7.276 E8.54156
G1 X14.965 Y-7.66 E8.62069
G1 X17.672 Y-8.124 E8.70062
G1 X19.124 Y-8.405 E8.74366
G1 X20.311 Y-8.644 E8.7789
G1 X20.844 Y-8.706 E8.79452
G1 X21.289 Y-8.716 E8.80747
G1 X21.959 Y-8.706 E8.82697
G1 X22.461 Y-8.658 E8.84165
G1 X22.948 Y-8.532 E8.85629
G1 X23.41 Y-8.331 E8.87095
G1 X23.834 Y-8.059 E8.88561
G1 X24.247 Y-7.694 E8.90165
G1 X24.764 Y-7.183 E8.92281
G1 X25.247 Y-6.684 E8.94302
G1 X25.681 Y-6.122 E8.96368
G1 X26.249 Y-5.184 E8.9956
G1 X26.533 Y-4.699 E9.01195
G1 X28 Y-2.349 E9.09258
G1 X29.228 Y-.488 E9.15746
G1 X29.719 Y0.239 E9.183
G1 X29.967 Y0.677 E9.19764
G1 X30.143 Y1.149 E9.2123
G1 X30.242 Y1.643 E9.22697
G1 X30.269 Y2.241 E9.24439
G1 X30.261 Y2.693 E9.25754
G1 X30.212 Y3.194 E9.27219
G1 X30.084 Y3.682 E9.28688
G1 X29.881 Y4.143 E9.30154
G1 X29.608 Y4.566 E9.31619
G1 X29.272 Y4.94 E9.33082
G1 X28.88 Y5.257 E9.34549
G1 X28.443 Y5.507 E9.36014
G1 X27.883 Y5.71 E9.37748
G1 X27.278 Y5.855 E9.39558
G1 X25.943 Y6.148 E9.43536
G1 X24.912 Y6.358 E9.46598
G1 X24.645 Y6.406 E9.47388
G1 X19.696 Y7.245 E9.61996
G1 X18.74 Y7.393 E9.64811
G1 X18.41 Y7.436 E9.6578
G1 X13.517 Y8.026 E9.80123
G1 X12.505 Y8.133 E9.83085
G1 X12.279 Y8.151 E9.83744
G1 X7.237 Y8.513 E9.98456
G1 X6.337 Y8.565 E10.01079
G1 X5.894 Y8.58 E10.02369
G1 X0.968 Y8.698 E10.16709
G1 X-0.047 Y8.707 E10.19663
G1 X-.339 Y8.702 E10.20513
G1 X-5.301 Y8.583 E10.34958
G1 X-6.283 Y8.544 E10.37818
G1 X-6.546 Y8.527 E10.38585
G1 X-11.589 Y8.163 E10.533
G1 X-12.534 Y8.081 E10.5606
G1 X-12.849 Y8.046 E10.56983
G1 X-17.806 Y7.446 E10.71514
G1 X-18.703 Y7.325 E10.74148
G1 X-19.028 Y7.273 E10.75106
G1 X-23.957 Y6.435 E10.89657
G1 X-24.935 Y6.254 E10.92551
G1 X-25.193 Y6.2 E10.93318
G1 X-26.971 Y5.809 E10.98617
G1 X-27.643 Y5.651 E11.00626
G1 X-28.122 Y5.497 E11.0209
G1 X-28.571 Y5.269 E11.03555
G1 X-28.979 Y4.973 E11.05022
G1 X-29.335 Y4.617 E11.06488
G1 X-29.629 Y4.209 E11.07951
G1 X-29.856 Y3.759 E11.09418
G1 X-30.009 Y3.279 E11.10884
G1 X-30.089 Y2.678 E11.12649
G1 X-30.093 Y1.982 E11.14674
G1 X-30.048 Y1.48 E11.16141
G1 X-29.924 Y0.992 E11.17606
G1 X-29.724 Y0.53 E11.19071
G1 X-29.39 Y-0.01 E11.20919
G1 X-27.908 Y-2.373 E11.29037
G1 X-26.509 Y-4.75 E11.37064
G1 X-26.039 Y-5.596 E11.3988
G1 X-25.766 Y-6.068 E11.41467
G1 X-25.344 Y-6.639 E11.43533
G1 X-25.134 Y-6.863 E11.44427
G1 X-24.711 Y-7.291 E11.46178
G1 X-24.182 Y-7.806 E11.48327
G1 X-23.794 Y-8.128 E11.49794
G1 X-23.361 Y-8.384 E11.51258
G1 X-22.892 Y-8.568 E11.52724
G1 X-22.4 Y-8.676 E11.5419
G1 X-21.868 Y-8.711 E11.55742
G1 X-21.505 Y-8.714 E11.56798
G1 X-20.946 Y-8.706 E11.58425
G1 X-20.427 Y-8.655 E11.59943
G1 X-20.222 Y-8.618 E11.60549
G1 X-17.726 Y-8.117 E11.67958
G1 X-15.036 Y-7.656 E11.75901
G1 X-12.35 Y-7.274 E11.83797
G1 X-9.613 Y-6.964 E11.91813
G1 X-6.864 Y-6.73 E11.99842
G1 X-4.155 Y-6.577 E12.07739
G1 X-1.397 Y-6.499 E12.15768
G1 X1.321 Y-6.499 E12.23678
G1 F1500 E9.23678
;MESH:Schrittmotorabdeckung_K8800.stl
G0 F6650 X20.263 Y-5.265
G0 X21.204 Y-5.265
G0 X21.61 Y-3.469
G0 X21.77 Y-3.312
;TYPE:WALL-INNER
G1 F1500 E12.23678
G1 F2100 X21.77 Y2.027 E12.39216
G1 X21.798 Y2.516 E12.40642
G1 X21.812 Y2.738 E12.41289
G1 X22.067 Y2.738 E12.42031
G1 X22.068 Y2.738 E12.42034
G1 X24.145 Y2.738 E12.48079
G1 X22.097 Y3.085 E12.51112
G1 X18.444 Y3.705 E12.61896
G1 X12.438 Y4.43 E12.79501
G1 X6.331 Y4.868 E12.9732
G1 X0.22 Y5.015 E13.1511
G1 X-5.839 Y4.868 E13.32748
G1 X-11.949 Y4.428 E13.50576
G1 X-17.974 Y3.699 E13.68238
G1 X-21.875 Y3.037 E13.79753
G1 X-23.63 Y2.738 E13.84935
G1 X-21.825 Y2.738 E13.8724
G1 X-21.825 Y2.537 E13.87825
G1 X-21.825 Y-3.312 E14.04847
G1 X-22.502 Y-3.312 E14.06817
G1 X-22.502 Y-4.266 E14.09593
G1 X-21.842 Y-4.927 E14.12312
G1 X-21.753 Y-5.016 E14.12678
G1 X-21.508 Y-5.016 E14.13391
G1 X-21.508 Y-4.89 E14.13707
G1 X-21.508 Y-3.312 E14.183
G1 X-21.508 Y2.537 E14.33717
G1 X-18.253 Y2.537 E14.4319
G1 X-17.758 Y2.619 E14.4465
G1 X-11.777 Y3.341 E14.62183
G1 X-11.129 Y3.39 E14.64074
G1 X-5.75 Y3.777 E14.79769
G1 X0.256 Y3.92 E14.97253
G1 X6.301 Y3.776 E15.1485
G1 X12.301 Y3.341 E15.32358
G1 X18.285 Y2.618 E15.49899
G1 X18.77 Y2.537 E15.5133
G1 X21.453 Y2.537 E15.59138
G1 X21.453 Y2.027 E15.60544
G1 X21.453 Y-3.312 E15.74617
G1 X21.453 Y-4.891 E15.79212
G1 X21.453 Y-5.016 E15.79576
G1 X21.699 Y-5.016 E15.80292
G1 X21.787 Y-4.928 E15.80604
G1 X22.448 Y-4.266 E15.83326
G1 X22.448 Y-3.312 E15.86103
G1 X21.77 Y-3.312 E15.88076
G0 F6650 X22.033 Y2.504
G0 X24.998 Y2.567
G1 F2100 X24.998 Y2.537 E15.88163
G1 X25.137 Y2.537 E15.88568
G1 X24.998 Y2.567 E15.88593
G1 F1500 E12.88593
G0 F6650 X14.689 Y2.808
G0 X12.278 Y3.119
G0 X6.289 Y3.552
G0 X0.256 Y3.697
G0 X-5.738 Y3.553
G0 X-11.754 Y3.119
G0 X-14.148 Y2.811
G0 X-24.702 Y2.575
G0 X-24.702 Y2.388
;TYPE:WALL-OUTER
G1 F1500 E15.88593
G1 F2100 X-22.175 Y2.388 E15.95947
G1 X-22.175 Y-2.962 E16.11517
G1 X-22.852 Y-2.962 E16.13487
G1 X-22.852 Y-4.411 E16.17704
G1 X-21.898 Y-5.366 E16.21632
G1 X-21.158 Y-5.366 E16.23786
G1 X-21.158 Y2.187 E16.45767
G1 X-18.226 Y2.187 E16.543
G1 X-17.709 Y2.272 E16.55825
G1 X-11.743 Y2.993 E16.73314
G1 X-11.103 Y3.041 E16.75182
G1 X-5.733 Y3.427 E16.9085
G1 X0.256 Y3.57 E17.08285
G1 X6.284 Y3.426 E17.25833
G1 X12.267 Y2.993 E17.4329
G1 X18.235 Y2.271 E17.60785
G1 X18.743 Y2.187 E17.62284
G1 X21.103 Y2.187 E17.69152
G1 X21.103 Y-5.366 E17.91133
G1 X21.844 Y-5.366 E17.9329
G1 X22.798 Y-4.411 E17.97218
G1 X22.798 Y-2.962 E18.01435
G1 X22.12 Y-2.962 E18.03408
G1 X22.12 Y2.017 E18.17899
G1 X22.142 Y2.388 E18.1898
G1 X24.648 Y2.388 E18.26273
G1 X24.648 Y2.187 E18.26858
G1 X26.771 Y2.187 E18.33037
G1 X26.923 Y2.187 E18.33479
G1 X26.922 Y2.504 E18.34402
G1 X26.774 Y2.536 E18.34822
G1 X24.546 Y3.025 E18.4146
G1 X18.504 Y4.05 E18.59295
G1 X12.463 Y4.779 E18.77004
G1 X6.344 Y5.218 E18.94857
G1 X0.22 Y5.365 E19.12685
G1 X-5.852 Y5.218 E19.30361
G1 X-11.974 Y4.777 E19.48224
G1 X-18.034 Y4.044 E19.65989
G1 X-24.042 Y3.023 E19.83724
G1 X-26.258 Y2.535 E19.90328
G1 X-26.751 Y2.427 E19.91797
G1 X-26.752 Y2.187 E19.92495
G1 X-26.247 Y2.187 E19.93735
G1 X-24.702 Y2.187 E19.98232
G1 X-24.702 Y2.388 E19.98817
G0 F6650 X-24.527 Y2.388
G0 X-24.527 Y2.575
G0 X-20.775 Y2.622
G0 X-20.775 Y2.877
;TYPE:SKIN
G1 F2100 X-18.285 Y2.877 E20.06063
G1 X-17.806 Y2.955 E20.07476
G1 X-11.81 Y3.679 E20.25052
G1 X-11.155 Y3.73 E20.26964
G1 X-5.767 Y4.117 E20.42685
G1 X0.256 Y4.26 E20.60219
G1 X6.317 Y4.116 E20.77863
G1 X12.334 Y3.679 E20.9542
G1 X18.333 Y2.954 E21.13006
G1 X18.802 Y2.877 E21.14389
G1 X21.288 Y2.877 E21.21624
G1 X18.389 Y3.369 E21.30181
G1 X12.413 Y4.09 E21.47699
G1 X6.306 Y4.528 E21.65518
G1 X0.22 Y4.675 E21.83235
G1 X-5.814 Y4.528 E22.008
G1 X-11.924 Y4.088 E22.18628
G1 X-17.919 Y3.363 E22.36202
G1 X-20.775 Y2.877 E22.44633
G0 F6650 X-20.775 Y2.622
G0 X-18.172 Y2.638
G0 X-18.239 Y3.044
G1 F2100 X-18.113 Y3.17 E22.45152
G0 F6650 X-17.658 Y3.13
G1 F2100 X-17.538 Y3.25 E22.45646
G0 F6650 X-17.095 Y3.198
G1 F2100 X-16.975 Y3.318 E22.4614
G0 F6650 X-16.532 Y3.266
G1 F2100 X-16.412 Y3.386 E22.46634
G0 F6650 X-15.969 Y3.334
G1 F2100 X-15.849 Y3.454 E22.47128
G0 F6650 X-15.406 Y3.402
G1 F2100 X-15.286 Y3.522 E22.47621
G0 F6650 X-14.843 Y3.47
G1 F2100 X-14.723 Y3.59 E22.48115
G0 F6650 X-14.28 Y3.538
G1 F2100 X-14.16 Y3.658 E22.48609
G0 F6650 X-13.717 Y3.606
G1 F2100 X-13.597 Y3.726 E22.49103
G0 F6650 X-13.155 Y3.674
G1 F2100 X-13.034 Y3.795 E22.49601
G0 F6650 X-12.592 Y3.742
G1 F2100 X-12.471 Y3.862 E22.50097
G0 F6650 X-12.029 Y3.809
G1 F2100 X-11.908 Y3.93 E22.50595
G0 F6650 X-11.481 Y3.862
G1 F2100 X-11.375 Y3.968 E22.51031
G0 F6650 X-10.946 Y3.903
G1 F2100 X-10.842 Y4.007 E22.51459
G0 F6650 X-10.412 Y3.941
G1 F2100 X-10.308 Y4.046 E22.51889
G0 F6650 X-9.879 Y3.979
G1 F2100 X-9.775 Y4.084 E22.5232
G0 F6650 X-9.346 Y4.017
G1 F2100 X-9.241 Y4.122 E22.52752
G0 F6650 X-8.812 Y4.056
G1 F2100 X-8.708 Y4.161 E22.53182
G0 F6650 X-8.279 Y4.094
G1 F2100 X-8.174 Y4.199 E22.53614
G0 F6650 X-7.746 Y4.133
G1 F2100 X-7.641 Y4.237 E22.54044
G0 F6650 X-7.213 Y4.171
G1 F2100 X-7.108 Y4.275 E22.54474
G0 F6650 X-6.68 Y4.209
G1 F2100 X-6.574 Y4.314 E22.54908
G0 F6650 X-6.146 Y4.248
G1 F2100 X-6.041 Y4.352 E22.55338
G0 F6650 X-5.62 Y4.278
G1 F2100 X-5.522 Y4.376 E22.55742
G0 F6650 X-5.114 Y4.29
G1 F2100 X-5.014 Y4.389 E22.56151
G0 F6650 X-4.607 Y4.302
G1 F2100 X-4.507 Y4.401 E22.56561
G0 F6650 X-4.1 Y4.314
G1 F2100 X-4 Y4.414 E22.56972
G0 F6650 X-3.593 Y4.326
G1 F2100 X-3.493 Y4.426 E22.57384
G0 F6650 X-3.086 Y4.338
G1 F2100 X-2.985 Y4.439 E22.578
G0 F6650 X-2.579 Y4.35
G1 F2100 X-2.478 Y4.451 E22.58215
G0 F6650 X-2.072 Y4.362
G1 F2100 X-1.97 Y4.463 E22.58633
G0 F6650 X-1.565 Y4.374
G1 F2100 X-1.463 Y4.475 E22.59051
G0 F6650 X-1.058 Y4.386
G1 F2100 X-.956 Y4.488 E22.59471
G0 F6650 X-.551 Y4.398
G1 F2100 X-.449 Y4.5 E22.5989
G0 F6650 X-0.045 Y4.409
G1 F2100 X0.058 Y4.513 E22.60316
G0 F6650 X0.452 Y4.412
G1 F2100 X0.549 Y4.509 E22.60716
G0 F6650 X0.936 Y4.401
G1 F2100 X1.033 Y4.497 E22.61113
G0 F6650 X1.419 Y4.389
