;FLAVOR:Marlin
;TIME:3663
;Filament used: 3.78645m
;Layer height: 0.2
;MINX:-49.576
;MINY:-49.561
;MINZ:0.2
;MAXX:49.576
;MAXY:49.562
;MAXZ:5
;Generated with Cura_SteamEngine 4.8.0
M82 ;absolute extrusion mode
; Vertex Delta Start Gcode
M0 Is my nozzle clean?
M400
G28 ; Home extruder
M106 S128 ; Start fan
M104 T0 R130 ; Set cold nozzle
M109 T0 R130 ; Wait for cold nozzle
M117 Leveling bed...
G29 ; Level Bed
G1 X0 Y100 Z1 F2000
G92 Z0.9 ; Set Z position (SET Z OFFSET HERE -> 1 - OFFSET)
M107 ; Stop fan
G90 ; Absolute positioning
M82 ; Extruder in absolute mode
M104 T0 S200
G92 E0 ; Reset extruder position
M109 T0 S200
M117 Priming nozzle...
M83
G1 E20 F100 ; purge/prime nozzle
M82
G92 E0 ; Reset extruder position
G4 S2 ; Wait 2 seconds
M355 S0 ; Turn off LED's
G1 Z15 F2000
G1 X0 Y85  F2000
M117 Vertex Delta printing
G92 E0
G92 E0
G1 F1500 E-3
;LAYER_COUNT:25
;LAYER:0
M107
G1 F600 Z1.2
G0 F6650 X0.321 Y-49.56 Z1.2
;TYPE:SKIRT
G1 F600 Z0.2
G1 F1500 E0
G1 F4200 X5.552 Y-49.382 E0.15232
G1 X5.637 Y-49.377 E0.1548
G1 X7.855 Y-49.181 E0.2196
G1 X7.957 Y-49.169 E0.22259
G1 X9.672 Y-48.904 E0.2731
G1 X9.807 Y-48.876 E0.27711
G1 X13.471 Y-47.975 E0.38692
G1 X13.568 Y-47.948 E0.38985
G1 X17.008 Y-46.865 E0.4948
G1 X17.115 Y-46.827 E0.49811
G1 X20.357 Y-45.542 E0.5996
G1 X20.468 Y-45.493 E0.60313
G1 X23.542 Y-43.993 E0.70268
G1 X23.652 Y-43.934 E0.70631
G1 X26.591 Y-42.197 E0.80566
G1 X26.695 Y-42.13 E0.80926
G1 X29.526 Y-40.142 E0.90994
G1 X29.62 Y-40.07 E0.91338
G1 X32.376 Y-37.808 E1.01715
G1 X32.456 Y-37.738 E1.02024
G1 X35.167 Y-35.189 E1.12853
G1 X35.236 Y-35.12 E1.13137
G1 X37.777 Y-32.413 E1.23943
G1 X37.851 Y-32.329 E1.24268
G1 X40.132 Y-29.525 E1.34788
G1 X40.203 Y-29.43 E1.35133
G1 X42.226 Y-26.518 E1.45452
G1 X42.293 Y-26.413 E1.45814
G1 X44.068 Y-23.374 E1.56057
G1 X44.126 Y-23.266 E1.56414
G1 X45.661 Y-20.093 E1.66672
G1 X45.709 Y-19.983 E1.67021
G1 X47.015 Y-16.66 E1.77412
G1 X47.054 Y-16.55 E1.77751
G1 X48.133 Y-13.063 E1.88374
G1 X48.161 Y-12.958 E1.88691
G1 X49.023 Y-9.297 E1.99636
G1 X49.057 Y-9.097 E2.00227
G1 X49.46 Y-5.184 E2.11675
G1 X49.468 Y-5.055 E2.12051
G1 X49.576 Y0.216 E2.27394
G1 X49.575 Y0.301 E2.27642
G1 X49.397 Y5.577 E2.43005
G1 X49.392 Y5.662 E2.43253
G1 X49.197 Y7.88 E2.49733
G1 X49.184 Y7.983 E2.50035
G1 X48.918 Y9.698 E2.55085
G1 X48.891 Y9.833 E2.55486
G1 X47.988 Y13.507 E2.66497
G1 X47.961 Y13.604 E2.6679
G1 X46.875 Y17.051 E2.77307
G1 X46.837 Y17.159 E2.77641
G1 X45.55 Y20.403 E2.87797
G1 X45.501 Y20.514 E2.8815
G1 X43.996 Y23.589 E2.98114
G1 X43.936 Y23.7 E2.98481
G1 X42.197 Y26.632 E3.08402
G1 X42.13 Y26.736 E3.08762
G1 X40.142 Y29.558 E3.18808
G1 X40.07 Y29.652 E3.19153
G1 X37.813 Y32.393 E3.29486
G1 X37.742 Y32.473 E3.29797
G1 X35.202 Y35.163 E3.40564
G1 X35.138 Y35.227 E3.40828
G1 X32.482 Y37.735 E3.51459
G1 X32.403 Y37.805 E3.51766
G1 X29.696 Y40.039 E3.6198
G1 X29.604 Y40.109 E3.62317
G1 X26.814 Y42.085 E3.72267
G1 X26.712 Y42.152 E3.72622
G1 X23.816 Y43.883 E3.82441
G1 X23.707 Y43.943 E3.82803
G1 X20.67 Y45.446 E3.92664
G1 X20.563 Y45.494 E3.93006
G1 X17.359 Y46.793 E4.03067
G1 X17.252 Y46.831 E4.03398
G1 X13.856 Y47.93 E4.13786
G1 X13.76 Y47.958 E4.14077
G1 X10.14 Y48.881 E4.24949
G1 X9.992 Y48.912 E4.25389
G1 X8.33 Y49.169 E4.30283
G1 X8.224 Y49.181 E4.30594
G1 X5.989 Y49.373 E4.37122
G1 X5.907 Y49.378 E4.37361
G1 X0.47 Y49.561 E4.53193
G1 X0.391 Y49.562 E4.53423
G1 X-5.056 Y49.471 E4.69278
G1 X-5.137 Y49.467 E4.69514
G1 X-7.386 Y49.314 E4.76074
G1 X-7.49 Y49.304 E4.76378
G1 X-9.173 Y49.077 E4.8132
G1 X-9.323 Y49.049 E4.81765
G1 X-12.98 Y48.189 E4.92698
G1 X-13.085 Y48.161 E4.93014
G1 X-16.565 Y47.084 E5.03616
G1 X-16.674 Y47.045 E5.03953
G1 X-19.991 Y45.743 E5.14323
G1 X-20.103 Y45.694 E5.14679
G1 X-23.27 Y44.16 E5.2492
G1 X-23.38 Y44.102 E5.25282
G1 X-26.413 Y42.324 E5.35513
G1 X-26.516 Y42.257 E5.35871
G1 X-29.429 Y40.227 E5.46204
G1 X-29.524 Y40.156 E5.46549
G1 X-32.338 Y37.864 E5.57111
G1 X-32.421 Y37.791 E5.57433
G1 X-35.147 Y35.23 E5.68318
G1 X-35.215 Y35.162 E5.68598
G1 X-37.778 Y32.441 E5.79477
G1 X-37.85 Y32.359 E5.79794
G1 X-40.129 Y29.578 E5.90258
G1 X-40.202 Y29.483 E5.90607
G1 X-42.211 Y26.611 E6.00807
G1 X-42.278 Y26.505 E6.01172
G1 X-44.034 Y23.513 E6.11269
G1 X-44.094 Y23.401 E6.11638
G1 X-45.612 Y20.26 E6.21791
G1 X-45.661 Y20.148 E6.22147
G1 X-46.955 Y16.832 E6.32506
G1 X-46.993 Y16.723 E6.32842
G1 X-48.08 Y13.198 E6.43577
G1 X-48.107 Y13.099 E6.43876
G1 X-49.001 Y9.342 E6.55115
G1 X-49.035 Y9.144 E6.557
G1 X-49.431 Y5.43 E6.6657
G1 X-49.439 Y5.304 E6.66937
G1 X-49.576 Y0.02 E6.8232
G1 X-49.453 Y-5.206 E6.97533
G1 X-49.445 Y-5.326 E6.97883
G1 X-49.068 Y-9.093 E7.08901
G1 X-49.034 Y-9.297 E7.09503
G1 X-48.173 Y-12.954 E7.20437
G1 X-48.145 Y-13.058 E7.2075
G1 X-47.069 Y-16.539 E7.31354
G1 X-47.03 Y-16.649 E7.31693
G1 X-45.73 Y-19.963 E7.42054
G1 X-45.681 Y-20.075 E7.42409
G1 X-44.145 Y-23.243 E7.52656
G1 X-44.087 Y-23.352 E7.53015
G1 X-42.311 Y-26.386 E7.63246
G1 X-42.244 Y-26.491 E7.63609
G1 X-40.212 Y-29.404 E7.73945
G1 X-40.141 Y-29.498 E7.74288
G1 X-37.85 Y-32.311 E7.84846
G1 X-37.777 Y-32.394 E7.85168
G1 X-35.217 Y-35.119 E7.96049
G1 X-35.148 Y-35.189 E7.96335
G1 X-32.422 Y-37.751 E8.07222
G1 X-32.338 Y-37.824 E8.07546
G1 X-29.525 Y-40.117 E8.18108
G1 X-29.43 Y-40.189 E8.18455
G1 X-26.516 Y-42.217 E8.28787
G1 X-26.413 Y-42.283 E8.29143
G1 X-23.38 Y-44.061 E8.39375
G1 X-23.27 Y-44.119 E8.39736
G1 X-20.103 Y-45.653 E8.49978
G1 X-19.991 Y-45.702 E8.50333
G1 X-16.674 Y-47.004 E8.60704
G1 X-16.565 Y-47.043 E8.61041
G1 X-13.085 Y-48.12 E8.71642
G1 X-12.98 Y-48.148 E8.71958
G1 X-9.323 Y-49.008 E8.82892
G1 X-9.123 Y-49.042 E8.83482
G1 X-5.209 Y-49.445 E8.94933
G1 X-5.08 Y-49.453 E8.95309
G1 X0.235 Y-49.561 E9.1078
G1 X0.321 Y-49.56 E9.11031
G0 F6650 X0.242 Y-49.211
G1 F4200 X5.54 Y-49.032 E9.26458
G1 X5.606 Y-49.028 E9.26651
G1 X7.824 Y-48.832 E9.33131
G1 X7.903 Y-48.823 E9.33362
G1 X9.618 Y-48.558 E9.38412
G1 X9.724 Y-48.537 E9.38727
G1 X13.388 Y-47.636 E9.49708
G1 X13.463 Y-47.614 E9.49935
G1 X16.903 Y-46.531 E9.60431
G1 X16.986 Y-46.502 E9.60687
G1 X20.228 Y-45.217 E9.70836
G1 X20.314 Y-45.179 E9.7111
G1 X23.388 Y-43.679 E9.81064
G1 X23.474 Y-43.633 E9.81348
G1 X26.413 Y-41.896 E9.91283
G1 X26.494 Y-41.844 E9.91563
G1 X29.325 Y-39.856 E10.01631
G1 X29.398 Y-39.8 E10.01899
G1 X32.154 Y-37.538 E10.12275
G1 X32.216 Y-37.483 E10.12516
G1 X34.927 Y-34.934 E10.23346
G1 X34.981 Y-34.88 E10.23568
G1 X37.522 Y-32.173 E10.34373
G1 X37.579 Y-32.108 E10.34624
G1 X39.86 Y-29.304 E10.45144
G1 X39.916 Y-29.23 E10.45414
G1 X41.939 Y-26.318 E10.55733
G1 X41.991 Y-26.237 E10.56013
G1 X43.766 Y-23.198 E10.66256
G1 X43.811 Y-23.113 E10.66535
G1 X45.346 Y-19.94 E10.76794
G1 X45.383 Y-19.855 E10.77063
G1 X46.689 Y-16.532 E10.87454
G1 X46.719 Y-16.446 E10.87719
G1 X47.798 Y-12.959 E10.98342
G1 X47.82 Y-12.878 E10.98586
G1 X48.682 Y-9.217 E11.09532
G1 X48.709 Y-9.061 E11.09993
G1 X49.112 Y-5.148 E11.21441
G1 X49.118 Y-5.048 E11.21733
G1 X49.226 Y0.223 E11.37076
G1 X49.047 Y5.565 E11.52631
G1 X49.043 Y5.631 E11.52824
G1 X48.848 Y7.849 E11.59303
G1 X48.839 Y7.93 E11.59541
G1 X48.573 Y9.645 E11.64591
G1 X48.552 Y9.749 E11.649
G1 X47.649 Y13.423 E11.75911
G1 X47.627 Y13.499 E11.76141
G1 X46.541 Y16.946 E11.86659
G1 X46.512 Y17.03 E11.86917
G1 X45.225 Y20.274 E11.97074
G1 X45.186 Y20.361 E11.97352
G1 X43.681 Y23.436 E12.07315
G1 X43.635 Y23.522 E12.07599
G1 X41.896 Y26.454 E12.1752
G1 X41.843 Y26.534 E12.17799
G1 X39.855 Y29.356 E12.27845
G1 X39.8 Y29.43 E12.28113
G1 X37.543 Y32.171 E12.38447
G1 X37.488 Y32.233 E12.38688
G1 X34.948 Y34.923 E12.49455
G1 X34.898 Y34.973 E12.49661
G1 X32.242 Y37.481 E12.60292
G1 X32.181 Y37.535 E12.60529
G1 X29.474 Y39.769 E12.70743
G1 X29.402 Y39.824 E12.71007
G1 X26.612 Y41.8 E12.80957
G1 X26.532 Y41.851 E12.81233
G1 X23.636 Y43.582 E12.91052
G1 X23.551 Y43.629 E12.91334
G1 X20.514 Y45.132 E13.01196
G1 X20.431 Y45.169 E13.01461
G1 X17.227 Y46.468 E13.11522
G1 X17.144 Y46.498 E13.11779
G1 X13.748 Y47.597 E13.22167
G1 X13.674 Y47.619 E13.22392
G1 X10.054 Y48.542 E13.33264
G1 X9.938 Y48.566 E13.33609
G1 X8.276 Y48.823 E13.38503
G1 X8.194 Y48.833 E13.38743
G1 X5.959 Y49.025 E13.45272
G1 X0.458 Y49.211 E13.6129
G1 X0.397 Y49.212 E13.61468
G1 X-5.05 Y49.121 E13.77322
G1 X-7.362 Y48.965 E13.84066
G1 X-7.443 Y48.957 E13.84303
G1 X-9.126 Y48.73 E13.89245
G1 X-9.242 Y48.708 E13.89589
G1 X-12.899 Y47.848 E14.00522
G1 X-12.981 Y47.826 E14.00769
G1 X-16.461 Y46.749 E14.11371
G1 X-16.547 Y46.719 E14.11636
G1 X-19.864 Y45.417 E14.22006
G1 X-19.95 Y45.379 E14.2228
G1 X-23.117 Y43.845 E14.32521
G1 X-23.203 Y43.8 E14.32803
G1 X-26.236 Y42.022 E14.43035
G1 X-26.316 Y41.97 E14.43313
G1 X-29.229 Y39.94 E14.53646
G1 X-29.303 Y39.885 E14.53914
G1 X-32.117 Y37.593 E14.64476
G1 X-32.182 Y37.536 E14.64728
G1 X-34.908 Y34.975 E14.75613
G1 X-34.961 Y34.922 E14.75831
G1 X-37.524 Y32.201 E14.8671
G1 X-37.579 Y32.137 E14.86956
G1 X-39.858 Y29.356 E14.97419
G1 X-39.915 Y29.282 E14.97691
G1 X-41.924 Y26.41 E15.07892
G1 X-41.976 Y26.328 E15.08174
G1 X-43.732 Y23.336 E15.1827
G1 X-43.779 Y23.249 E15.18558
G1 X-45.297 Y20.108 E15.28711
G1 X-45.335 Y20.02 E15.2899
G1 X-46.629 Y16.704 E15.39349
G1 X-46.659 Y16.62 E15.39609
G1 X-47.746 Y13.095 E15.50344
G1 X-47.767 Y13.018 E15.50576
G1 X-48.661 Y9.261 E15.61815
G1 X-48.687 Y9.107 E15.6227
G1 X-49.083 Y5.393 E15.7314
G1 X-49.09 Y5.295 E15.73426
G1 X-49.226 Y0.089 E15.88582
G1 X-49.226 Y0.028 E15.88759
G1 X-49.103 Y-5.198 E16.03973
G1 X-49.097 Y-5.291 E16.04244
G1 X-48.72 Y-9.058 E16.15262
G1 X-48.693 Y-9.217 E16.15731
G1 X-47.832 Y-12.874 E16.26665
G1 X-47.81 Y-12.955 E16.26909
G1 X-46.734 Y-16.436 E16.37513
G1 X-46.704 Y-16.521 E16.37775
G1 X-45.404 Y-19.835 E16.48135
G1 X-45.366 Y-19.922 E16.48411
G1 X-43.83 Y-23.09 E16.58658
G1 X-43.785 Y-23.175 E16.58937
G1 X-42.009 Y-26.209 E16.69169
G1 X-41.957 Y-26.291 E16.69451
G1 X-39.925 Y-29.204 E16.79788
G1 X-39.87 Y-29.277 E16.80054
G1 X-37.579 Y-32.09 E16.90612
G1 X-37.522 Y-32.155 E16.90863
G1 X-34.962 Y-34.88 E17.01745
G1 X-34.908 Y-34.934 E17.01967
G1 X-32.182 Y-37.496 E17.12854
G1 X-32.117 Y-37.553 E17.13106
G1 X-29.304 Y-39.846 E17.23667
G1 X-29.23 Y-39.901 E17.23936
G1 X-26.316 Y-41.929 E17.34268
G1 X-26.236 Y-41.981 E17.34546
G1 X-23.203 Y-43.759 E17.44777
G1 X-23.117 Y-43.804 E17.4506
G1 X-19.95 Y-45.338 E17.55301
G1 X-19.864 Y-45.376 E17.55574
G1 X-16.547 Y-46.678 E17.65945
G1 X-16.461 Y-46.708 E17.6621
G1 X-12.981 Y-47.785 E17.76812
G1 X-12.899 Y-47.807 E17.77059
G1 X-9.242 Y-48.667 E17.87992
G1 X-9.087 Y-48.694 E17.8845
G1 X-5.173 Y-49.097 E17.99901
G1 X-5.073 Y-49.103 E18.00192
G1 X0.242 Y-49.211 E18.15663
G0 F6650 X0.249 Y-48.861
G1 F4200 X5.575 Y-48.68 E18.31172
G1 X7.793 Y-48.484 E18.37653
G1 X7.85 Y-48.477 E18.3782
G1 X9.565 Y-48.212 E18.4287
G1 X9.64 Y-48.197 E18.43093
G1 X13.304 Y-47.296 E18.54073
G1 X13.358 Y-47.281 E18.54237
G1 X16.798 Y-46.198 E18.64732
G1 X20.099 Y-44.891 E18.75065
G1 X20.161 Y-44.864 E18.75261
G1 X23.235 Y-43.364 E18.85216
G1 X23.296 Y-43.331 E18.85418
G1 X26.235 Y-41.594 E18.95353
G1 X26.293 Y-41.557 E18.95553
G1 X29.124 Y-39.569 E19.05621
G1 X29.176 Y-39.529 E19.05812
G1 X31.932 Y-37.267 E19.16188
G1 X31.976 Y-37.228 E19.16359
G1 X34.726 Y-34.641 E19.27347
G1 X37.267 Y-31.934 E19.38152
G1 X37.308 Y-31.887 E19.38334
G1 X39.589 Y-29.083 E19.48853
G1 X39.629 Y-29.03 E19.49046
G1 X41.652 Y-26.118 E19.59365
G1 X41.689 Y-26.06 E19.59566
G1 X43.464 Y-23.021 E19.69808
G1 X43.496 Y-22.961 E19.70006
G1 X45.031 Y-19.788 E19.80264
G1 X45.057 Y-19.727 E19.80457
G1 X46.363 Y-16.404 E19.90848
G1 X46.385 Y-16.343 E19.91037
G1 X47.464 Y-12.856 E20.01659
G1 X47.48 Y-12.798 E20.01834
G1 X48.342 Y-9.137 E20.1278
G1 X48.36 Y-9.026 E20.13108
G1 X48.763 Y-5.113 E20.24556
G1 X48.768 Y-5.041 E20.24766
G1 X48.876 Y0.278 E20.40249
G1 X48.695 Y5.601 E20.55749
G1 X48.5 Y7.819 E20.62229
G1 X48.493 Y7.876 E20.62396
G1 X48.227 Y9.591 E20.67447
G1 X48.212 Y9.666 E20.67669
G1 X47.309 Y13.34 E20.7868
G1 X47.294 Y13.394 E20.78843
G1 X46.208 Y16.841 E20.89361
G1 X46.186 Y16.901 E20.89547
G1 X44.899 Y20.145 E20.99703
G1 X44.872 Y20.207 E20.999
G1 X43.367 Y23.282 E21.09863
G1 X43.334 Y23.343 E21.10065
G1 X41.595 Y26.275 E21.19986
G1 X41.557 Y26.333 E21.20188
G1 X39.569 Y29.155 E21.30234
G1 X39.529 Y29.207 E21.30425
G1 X37.272 Y31.948 E21.40758
G1 X37.233 Y31.993 E21.40932
G1 X34.658 Y34.718 E21.51843
G1 X32.002 Y37.226 E21.62474
G1 X31.958 Y37.265 E21.62645
G1 X29.251 Y39.499 E21.72859
G1 X29.2 Y39.538 E21.73046
G1 X26.41 Y41.514 E21.82996
G1 X26.353 Y41.551 E21.83194
G1 X23.457 Y43.282 E21.93013
G1 X23.396 Y43.315 E21.93214
G1 X20.359 Y44.818 E22.03076
G1 X20.3 Y44.845 E22.03265
G1 X17.096 Y46.144 E22.13327
G1 X17.036 Y46.165 E22.13512
G1 X13.587 Y47.28 E22.24061
G1 X9.967 Y48.203 E22.34933
G1 X9.885 Y48.22 E22.35177
G1 X8.223 Y48.477 E22.40071
G1 X8.164 Y48.484 E22.40244
G1 X5.883 Y48.679 E22.46906
G1 X0.446 Y48.862 E22.62738
G1 X-5.045 Y48.771 E22.78721
G1 X-7.338 Y48.616 E22.85409
G1 X-7.396 Y48.61 E22.85579
G1 X-9.079 Y48.383 E22.90521
G1 X-9.162 Y48.368 E22.90767
G1 X-12.819 Y47.508 E23.017
G1 X-12.878 Y47.492 E23.01878
G1 X-16.358 Y46.415 E23.12479
G1 X-16.419 Y46.394 E23.12667
G1 X-19.736 Y45.092 E23.23038
G1 X-22.964 Y43.53 E23.33474
G1 X-23.026 Y43.498 E23.33677
G1 X-26.059 Y41.72 E23.43909
G1 X-26.116 Y41.683 E23.44106
G1 X-29.029 Y39.653 E23.5444
G1 X-29.082 Y39.613 E23.54633
G1 X-31.896 Y37.321 E23.65195
G1 X-31.942 Y37.281 E23.65372
G1 X-34.668 Y34.72 E23.76258
G1 X-34.706 Y34.682 E23.76414
G1 X-37.269 Y31.961 E23.87293
G1 X-37.309 Y31.916 E23.87468
G1 X-39.588 Y29.135 E23.97932
G1 X-39.628 Y29.082 E23.98125
G1 X-41.637 Y26.21 E24.08325
G1 X-41.675 Y26.151 E24.08529
G1 X-43.431 Y23.159 E24.18626
G1 X-43.464 Y23.097 E24.1883
G1 X-44.982 Y19.956 E24.28983
G1 X-45.009 Y19.893 E24.29182
G1 X-46.303 Y16.577 E24.39542
G1 X-46.324 Y16.517 E24.39727
G1 X-47.411 Y12.992 E24.50462
G1 X-47.426 Y12.937 E24.50628
G1 X-48.32 Y9.18 E24.61867
G1 X-48.339 Y9.07 E24.62192
G1 X-48.735 Y5.356 E24.73062
G1 X-48.74 Y5.286 E24.73266
G1 X-48.876 Y0.036 E24.8855
G1 X-48.753 Y-5.19 E25.03763
G1 X-48.749 Y-5.256 E25.03956
G1 X-48.372 Y-9.023 E25.14974
G1 X-48.353 Y-9.137 E25.1531
G1 X-47.492 Y-12.794 E25.26244
G1 X-47.476 Y-12.851 E25.26416
G1 X-46.4 Y-16.332 E25.3702
G1 X-46.379 Y-16.394 E25.3721
G1 X-45.079 Y-19.708 E25.4757
G1 X-45.051 Y-19.77 E25.47768
G1 X-43.515 Y-22.938 E25.58014
G1 X-43.483 Y-22.998 E25.58212
G1 X-41.707 Y-26.032 E25.68444
G1 X-41.67 Y-26.091 E25.68646
G1 X-39.638 Y-29.004 E25.78983
G1 X-39.598 Y-29.056 E25.79174
G1 X-37.307 Y-31.869 E25.89732
G1 X-37.267 Y-31.915 E25.89909
G1 X-34.707 Y-34.64 E26.0079
G1 X-34.668 Y-34.679 E26.00951
G1 X-31.942 Y-37.241 E26.11838
G1 X-31.896 Y-37.281 E26.12015
G1 X-29.083 Y-39.574 E26.22577
G1 X-29.03 Y-39.614 E26.2277
G1 X-26.116 Y-41.642 E26.33103
G1 X-26.059 Y-41.679 E26.333
G1 X-23.026 Y-43.457 E26.43532
G1 X-22.964 Y-43.489 E26.43735
G1 X-19.736 Y-45.051 E26.54171
G1 X-16.419 Y-46.353 E26.64542
G1 X-16.358 Y-46.374 E26.6473
G1 X-12.878 Y-47.451 E26.75331
G1 X-12.819 Y-47.467 E26.75509
G1 X-9.162 Y-48.327 E26.86442
G1 X-9.052 Y-48.345 E26.86767
G1 X-5.138 Y-48.748 E26.98218
G1 X-5.066 Y-48.753 E26.98428
G1 X0.249 Y-48.861 E27.13899
G0 F6650 X0.285 Y-48.511
G1 F4200 X5.544 Y-48.331 E27.29213
G1 X7.796 Y-48.131 E27.35793
G1 X9.511 Y-47.866 E27.40843
G1 X9.556 Y-47.857 E27.40977
G1 X13.253 Y-46.947 E27.52057
G1 X16.693 Y-45.864 E27.62553
G1 X19.97 Y-44.566 E27.7281
G1 X20.007 Y-44.55 E27.72928
G1 X23.081 Y-43.05 E27.82882
G1 X23.118 Y-43.03 E27.83005
G1 X26.092 Y-41.271 E27.9306
G1 X28.923 Y-39.283 E28.03128
G1 X31.71 Y-36.997 E28.13618
G1 X34.448 Y-34.424 E28.24553
G1 X37.012 Y-31.694 E28.35452
G1 X39.317 Y-28.862 E28.46079
G1 X39.341 Y-28.831 E28.46193
G1 X41.364 Y-25.919 E28.56512
G1 X43.161 Y-22.845 E28.66875
G1 X43.181 Y-22.809 E28.66995
G1 X44.716 Y-19.636 E28.77253
G1 X46.038 Y-16.276 E28.87761
G1 X46.051 Y-16.239 E28.87875
G1 X47.13 Y-12.752 E28.98498
G1 X48.001 Y-9.056 E29.09549
G1 X48.012 Y-8.99 E29.09743
G1 X48.418 Y-5.034 E29.21317
G1 X48.526 Y0.266 E29.36745
G1 X48.346 Y5.57 E29.52189
